!!!COM: Georg Philipp Telemann
!!!OTL: Concerto in D
!!!system-decoration: ([(s1,s2,s3)]s4{(s5,s6)})
**kern	**kern	**kern	**kern	**kern	**kern	**kern	**kern	**kern	**kern	**kern	**kern	**kern	**kern	**kern	**kern	**kern	**kern	**kern	**kern	**kern	**kern	**kern	**kern	**kern	**kern
*part6	*part5	*part4	*part4	*part4	*part4	*part4	*part4	*part3	*part3	*part3	*part3	*part3	*part3	*part2	*part2	*part2	*part2	*part2	*part2	*part1	*part1	*part1	*part1	*part1	*part1
*staff26	*staff25	*staff24	*staff23	*staff22	*staff21	*staff20	*staff19	*staff18	*staff17	*staff16	*staff15	*staff14	*staff13	*staff12	*staff11	*staff10	*staff9	*staff8	*staff7	*staff6	*staff5	*staff4	*staff3	*staff2	*staff1
*	*	*I'Timp.	*	*	*	*	*	*I'C Tpt. 3	*	*	*	*	*	*I'C Tpt. 2	*	*	*	*	*	*I'C Tpt. 1	*	*	*	*	*
*	*	*I"Timpani	*	*	*	*	*	*I"Trumpet in C 3	*	*	*	*	*	*I"Trumpet in C 2	*	*	*	*	*	*I"Trumpet in C 1	*	*	*	*	*
*clefF4	*clefG2	*clefF4	*clefG2	*clefG2	*clefG2
*k[f#c#]	*k[f#c#]	*k[f#c#]	*k[f#c#]	*k[f#c#]	*k[f#c#]
*M4/4	*M4/4	*M4/4	*M4/4	*M4/4	*M4/4
!	!	!	!	!	!LO:TX:a:iB:t=1 - Intrada (Adagio)
4D	8r	4D	4f#y	4a	4dd
.	16.AL 16.d 16.f#y	.	.	.	.
.	32AJ 32d 32f#y	.	.	.	.
4r	16.dL 16.f#y 16.a	4r	4r	4r	4r
.	32d 32f#y 32a	.	.	.	.
.	16.f#y 16.a 16.dd	.	.	.	.
.	32f#yJ 32a 32dd	.	.	.	.
4D	8aL 8dd 8ff#y	4D	4a	4dd	4ff#y
.	16.d 16.f#y 16.a	.	.	.	.
.	32aJ	.	.	.	.
4r	16.f#yL 16.a 16.dd	4r	4r	4r	4r
.	32f#y 32a 32dd	.	.	.	.
.	16.a 16.dd 16.ff#y	.	.	.	.
.	32aJ 32dd 32ff#y	.	.	.	.
=2	=2	=2	=2	=2	=2
8dL	8ddL 8ff#y 8aa	8DL	8ddL	8ff#yL	8aaL
8DJ	8aJ 8dd 8ff#y	8DJ	8aJ	8ddJ	8ff#yJ
8r	16.r	8r	8r	8r	8r
.	32aaL	.	.	.	.
16.dL	16.a 16.dd 16.ff#y	16.DL	16.dL	16.ff#yL	16.aaL
32dJ	32f#yJ 32a 32dd	32DJ	32f#yJ	32ff#yJ	32aaJ
4c#y	16.aL 16.ee	4AA	4a	4ee	4aa
.	32a	.	.	.	.
.	16.a	.	.	.	.
.	32aJ	.	.	.	.
8r	16.aL	8r	8r	8r	8r
.	32aa	.	.	.	.
16.dL	16.a 16.dd 16.ff#y	16.DL	16.dL	16.ff#yL	16.aaL
32dJ	32f#yJ 32a 32dd	32DJ	32f#yJ	32ff#yJ	32aaJ
=3	=3	=3	=3	=3	=3
4A	16.aL 16.cc#y 16.ee	4AA	4a	4ee	4aa
.	32a	.	.	.	.
.	16.a	.	.	.	.
.	32aJ	.	.	.	.
8r	16.aL	8r	8r	8r	8r
.	32cc#y	.	.	.	.
16.F#yL	16.dd	16.DL	16.ddL	16.ff#yL	16.aaL
32F#yJ	32aJ	32DJ	32ddJ	32ff#yJ	32aaJ
8GL	8dL 8g 8b	8DL	8dL	8ddL	8aaL
8GGJ	8gJ 8b 8ee	8r	8r	16.ee	16.gg
.	.	.	.	32eeJ	32ggJ
8AAL	16.gL 16.a 16.cc#y	8AAJ	8aJ	8eeL	8ggL
.	32ee	.	.	.	.
16.A	16.a 16.cc#y 16.ff#y	8r	8r	16.a	16.ff#y
32AJ	32f#yJ 32a 32cc#y	.	.	32aJ	32ff#yJ
!!LO:LB
=4	=4	=4	=4	=4	=4
8BL	8f#yL 8b 8dd	8DL	8dL	8ddL	8ff#yL
8BBJ	8gJ 8dd 8gg	8r	8r	16.dd	16.gg
.	.	.	.	32ddJ	32ggJ
8C#yL	16.eeL	8AAJ	8aJ	8eeL	8ggL
.	32gg	.	.	.	.
16.c#y	16.aa	8r	8r	16.ee	16.aa
32c#yJ	32eeJ	.	.	32eeJ	32aaJ
8dL	16.ff#yL	8DL	8dL	8ff#yL	8aaL
.	32ff#y	.	.	.	.
8G	16.gg	16.D	16.d	16.dd	16.gg
.	32aaJ	32DJ	32dJ	32ddJ	32ff#yJ
8A	16.eeL	16.AAL	16.aL	16.ddL	16.eeL
.	32ee	32AA	32a	32dd	32ee
8AAJ	16.ff#y	16.AA	16.a	16.dd	16.ff#y
.	32ggJ	32AAJ	32aJ	32aJ	32ggJ
=5	=5	=5	=5	=5	=5
4D	8ff#yL	8DL	8aL	8ddL	8ff#yL
.	16.A 16.d 16.f#y	8DJ	8f#yJ	8aJ	8ddJ
.	32AJ 32d 32f#y	.	.	.	.
4r	16.dL 16.f#y 16.a	4r	4r	4r	4r
.	32d 32f#y 32a	.	.	.	.
.	16.f#y 16.a 16.dd	.	.	.	.
.	32f#yJ 32a 32dd	.	.	.	.
4D	8aL 8dd 8ff#y	4D	4a	4dd	4ff#y
.	16.d 16.f#y 16.a	.	.	.	.
.	32dJ 32f#y 32a	.	.	.	.
4r	16.f#yL 16.a 16.dd	4r	4r	4r	4r
.	32f#y 32a 32dd	.	.	.	.
.	16.a 16.dd 16.ff#y	.	.	.	.
.	32aJ 32dd 32ff#y	.	.	.	.
=6	=6	=6	=6	=6	=6
8dL	8ddL 8ff#y 8aa	8DL	8ddL	8ff#yL	8aaL
8DJ	8aJ 8dd 8ff#y	8DJ	8aJ	8ddJ	8ff#yJ
8r	16.r	4r	4r	8r	8r
.	32ff#yL	.	.	.	.
16.DL	16.f#y 16.b 16.dd	.	.	16.ddL	16.ff#yL
32DJ	32dJ 32f#y 32b	.	.	32ddJ	32ff#yJ
4C#y	16.eL 16.a 16.ee	2r	2r	4ee	4ee
.	32b	.	.	.	.
.	16.e 16.a 16.cc#y	.	.	.	.
.	32g#J	.	.	.	.
8r	16.dL 16.f#y 16.a	.	.	8r	8r
.	32ee	.	.	.	.
16.F#yL	16.e 16.a 16.cc#y	.	.	16.eeL	16.aaL
32F#yJ	32eJ 32a	.	.	32eeJ	32aaJ
=7	=7	=7	=7	=7	=7
4BB	16.f#yL 16.a 16.dd	2r	2r	4dd	4ff#y
.	32d 32f#y 32a	.	.	.	.
.	16.d 16.f#y 16.b	.	.	.	.
.	32BJ 32d 32f#y	.	.	.	.
8r	16.BL 16.e 16.g#	.	.	8r	8r
.	32e 32g#y 32b	.	.	.	.
16.G#L	16.e 16.b 16.ee	.	.	16.eeL	16.bbL
32G#yJ	32eJ 32b	.	.	32eeJ	32bbJ
4A	8eL 8a 8cc#y	4AA	4a	4ee	4aa
.	16.c#y 16.e	.	.	.	.
.	32c#yJ 32e	.	.	.	.
4r	16.c#yL 16.e 16.a	4r	4r	4r	4r
.	32c#y 32e 32a	.	.	.	.
.	16.e 16.a 16.cc#y	.	.	.	.
.	32eJ 32a 32cc#y	.	.	.	.
=8	=8	=8	=8	=8	=8
4AA	8aL 8cc#y 8ee	4AA	4a	4ee	4aa
.	16.c#y 16.e 16.a	.	.	.	.
.	32c#yJ 32e 32a	.	.	.	.
4r	16.eL 16.a 16.cc#y	4r	4r	4r	4r
.	32e 32a 32cc#y	.	.	.	.
.	16.a 16.cc#y 16.ee	.	.	.	.
.	32aJ 32cc#y 32ee	.	.	.	.
8AL	8cc#yL 8ee 8aa	8AAL	8aL	8eeL	8aaL
8AAJ	8aJ 8cc#y 8ee	8AAJ	8aJ	8aJ	8eeJ
8r	16.r	4r	4r	4r	4r
.	32gg#L	.	.	.	.
16.d#L	16.b 16.ff#y 16.aa	.	.	.	.
32d#yJ	32bJ 32ff#y	.	.	.	.
=9	=9	=9	=9	=9	=9
4e	16.bL 16.ee 16.gg#	1r	1r	1r	1r
.	32gg#y	.	.	.	.
.	16.aa	.	.	.	.
.	32bbJ	.	.	.	.
8r	16.eeL	.	.	.	.
.	32gg#y	.	.	.	.
16.d#L	16.b 16.ff#y 16.aa	.	.	.	.
32d#yJ	32bJ 32ff#y	.	.	.	.
4e	16.bL 16.ee 16.gg#y	.	.	.	.
.	32gg#y	.	.	.	.
.	16.aa	.	.	.	.
.	32bbJ	.	.	.	.
8r	16.eeL	.	.	.	.
.	32ee	.	.	.	.
16.AL	16.e 16.a 16.cc#y	.	.	.	.
32AJ	32c#yJ 32e 32a	.	.	.	.
!!LO:LB
=10	=10	=10	=10	=10	=10
*	*^	*	*	*	*
8DL	8ff#yL	16.r	1r	1r	1r	1r
.	.	32aL	.	.	.	.
8DDJ	8bJ	16.f#y	.	.	.	.
.	.	32dJ	.	.	.	.
8DDL	16.r	8bL	.	.	.	.
.	32ff#yL	.	.	.	.	.
16.D	16.dd	8bJ	.	.	.	.
32DJ	32bJ	.	.	.	.	.
8EL	8gg#L	16.r	.	.	.	.
.	.	32bL	.	.	.	.
8EEJ	8cc#yJ	16.g#	.	.	.	.
.	.	32eJ	.	.	.	.
8EEL	16.r	8cc#yL	.	.	.	.
.	32gg#yL	.	.	.	.	.
16.E	16.ee	8cc#yJ	.	.	.	.
32EJ	32cc#yJ	.	.	.	.	.
=11	=11	=11	=11	=11	=11	=11
8F#yL	8aaL	16.r	1r	1r	1r	1r
.	.	32cc#yL	.	.	.	.
8FF#yJ	8ddJ	16.a	.	.	.	.
.	.	32f#yJ	.	.	.	.
8FF#yL	16.r	8ddL	.	.	.	.
.	32aaL	.	.	.	.	.
16.F#y	16.ff#y	8ddJ	.	.	.	.
32F#yJ	32ddJ	.	.	.	.	.
16.G#L	16.bbL	16.r	.	.	.	.
32G#y	32bb	32ddL	.	.	.	.
16.F#y	16.aa	16.dd 16.ff#y	.	.	.	.
32F#yJ	32aaJ	32ddJ 32ff#y	.	.	.	.
16.EL	16.gg#L	16.bL 16.ee	.	.	.	.
32E	32gg#y	32b 32ee	.	.	.	.
16.D	16.ff#y	16.a 16.dd	.	.	.	.
32DJ	32ff#yJ	32aJ 32dd	.	.	.	.
*	*v	*v	*	*	*	*
=12	=12	=12	=12	=12	=12
*^	*	*	*	*	*
.	16.C#yL	16.aL 16.ee	1r	1r	1r	1r
.	32C#y	32a 32ee	.	.	.	.
.	16.BB	16.g# 16.dd	.	.	.	.
.	32BBJ	32g#yJ 32dd	.	.	.	.
.	16.AAL	16.eL 16.a 16.cc#y	.	.	.	.
.	32AA	32e 32a 32cc#y	.	.	.	.
.	16.GG#	16.e 16.b	.	.	.	.
.	32GG#yJ	32eJ 32b	.	.	.	.
.	4FF#y	8dL 8f#y 8a	.	.	.	.
.	.	8f#yJ 8a 8dd	.	.	.	.
.	8r	16.r	.	.	.	.
.	.	32cc#yL	.	.	.	.
.	16.GG#yL	16.e 16.b 16.dd	.	.	.	.
.	32GG#yJ	32eJ 32b	.	.	.	.
*v	*v	*	*	*	*	*
=13	=13	=13	=13	=13	=13
8AAL	8aL 8cc#y	1r	1r	2r	1r
8C#y	8ee 8aa	.	.	.	.
8D	8f#y 8b	.	.	.	.
8EJ	8bJ 8gg#	.	.	.	.
4AA	8cc#yL 8aa	.	.	8r	.
.	8eJ 8a	.	.	16.eeL	.
.	.	.	.	32eeJ	.
8r	8r	.	.	[4ee	.
8A	16.aL 16.cc#y	.	.	.	.
.	32aJ	.	.	.	.
=14	=14	=14	=14	=14	=14
8G#L	16.bL	1r	1r	2.ee]]	2r
.	32e	.	.	.	.
8B	16.dd	.	.	.	.
.	32eJ	.	.	.	.
8A	16.cc#yL	.	.	.	.
.	32e	.	.	.	.
8G#yJ	16.b	.	.	.	.
.	32eJ	.	.	.	.
8AL	16.aL 16.cc#y	.	.	.	8r
.	32b	.	.	.	.
8AAJ	8aJ	.	.	.	16.eeL
.	.	.	.	.	32eeJ
4r	8r	.	.	4r	[4ee
.	32aL 32cc#y	.	.	.	.
.	32b 32dd	.	.	.	.
.	16aJ 16cc#y	.	.	.	.
=15	=15	=15	=15	=15	=15
2r	32g#L 32b	1r	1r	2r	2.ee
.	32a 32cc#y	.	.	.	.
.	16g#y 16b	.	.	.	.
.	32b 32dd	.	.	.	.
.	32cc#y 32ee	.	.	.	.
.	16bJ 16dd	.	.	.	.
.	32aL 32cc#y	.	.	.	.
.	32b 32dd	.	.	.	.
.	16a 16cc#y	.	.	.	.
.	32g#y 32b	.	.	.	.
.	32a 32cc#y	.	.	.	.
.	16g#yJ 16b	.	.	.	.
8AL	16.aL 16.cc#y	.	.	8r	.
.	32g#y 32b	.	.	.	.
8AA	8aJ 8cc#y	.	.	16.aaL	.
.	.	.	.	32aaJ	.
8r	8r	.	.	[4aa	4r
8dJ	16.ff#yL	.	.	.	.
.	32ddJ	.	.	.	.
!!LO:LB
=16	=16	=16	=16	=16	=16
8c#yL	16.eeL	1r	1r	2.aa]]	2r
.	32a	.	.	.	.
8e	16.gg	.	.	.	.
.	32aJ	.	.	.	.
8d	16.ff#yL	.	.	.	.
.	32a	.	.	.	.
8c#yJ	16.ee	.	.	.	.
.	32aJ	.	.	.	.
8dL	16.ddL 16.ff#y	.	.	.	8r
.	32ee	.	.	.	.
8DJ	8ddJ	.	.	.	16.aaL
.	.	.	.	.	32aaJ
4r	8r	.	.	4r	[4aa
.	32ddL 32ff#y	.	.	.	.
.	32ee 32gg	.	.	.	.
.	16ddJ 16ff#y	.	.	.	.
=17	=17	=17	=17	=17	=17
2r	32ddL 32ff#y	2r	2r	2r	2.aa
.	32ee 32gg	.	.	.	.
.	16dd 16ff#y	.	.	.	.
.	32ee 32gg	.	.	.	.
.	32ff#y 32aa	.	.	.	.
.	16eeJ 16gg	.	.	.	.
.	32ddL 32ff#y	.	.	.	.
.	32ee 32gg	.	.	.	.
.	16dd 16ff#y	.	.	.	.
.	32cc#y 32ee	.	.	.	.
.	32dd 32ff#y	.	.	.	.
.	16cc#yJ 16ee	.	.	.	.
8dL	16.ddL 16.ff#y	4r	4r	4r	.
.	32cc#y 32ee	.	.	.	.
8DJ 8A 8d	8aJ 8dd 8ff#y	.	.	.	.
8r	8r	8r	8r	8r	8r
16.DL	16.f#yL 16.a 16.dd	16.DL	16.ddL	16.ff#yL	16.aaL
32DJ	32f#yJ 32a 32dd	32DJ	32ddJ	32ff#yJ	32aaJ
=18	=18	=18	=18	=18	=18
*^	*	*	*	*	*
.	8F#yL	16.f#yL 16.a 16.dd	4D	4a	8ddL	8aaL
.	.	32dd	.	.	.	.
.	8D	16.f#y 16.a 16.dd	.	.	16.dd	(>32ff#y
.	.	.	.	.	.	32gg
.	.	.	.	.	.	16ff#yJ)
.	.	32aJ 32dd	.	.	32ddJ	.
.	8E	16.eL 16.g 16.dd	8r	8r	16.ddL	(>32ggL
.	.	.	.	.	.	32aa
.	.	.	.	.	.	16gg)
.	.	32dd	.	.	32dd	.
.	8F#yJ	16.d 16.f#y 16.dd	16.DL	16.aL	16.dd	(>32aa
.	.	.	.	.	.	32bb
.	.	.	.	.	.	16aaJ)
.	.	32ddJ	32DJ	32aJ	32ddJ	.
.	8GL	16.gL 16.b 16.dd	8D	8d	8ddL	8bbL
.	.	32b	.	.	.	.
.	8E	16.g# 16.b 16.ee	8r	8r	16.ee	(>32gg#
.	.	.	.	.	.	32aa
.	.	.	.	.	.	16gg#yJ)
.	.	32eeJ	.	.	32eeJ	.
.	8F#y	16.f#yL 16.a 16.ee	4r	8r	16.eeL	(>32aaL
.	.	.	.	.	.	32bb
.	.	.	.	.	.	16aa)
.	.	32ee	.	.	32ee	.
.	8G#J	16.e 16.g#y 16.ee	.	16.ddL	16.ee	(>32bb
.	.	.	.	.	.	32ccc#y
.	.	.	.	.	.	16bbJ)
.	.	32eeJ	.	32ddJ	32eeJ	.
=19	=19	=19	=19	=19	=19	=19
.	8AL	16.aL 16.cc#y 16.ee	8AA	4a	8eeL	8ccc#yL
.	.	32a 32cc#y	.	.	.	.
.	8F#y	16.a# 16.cc#y 16.ff#y	8r	.	16.ff#y	(>32ccc#y
.	.	.	.	.	.	32ddd
.	.	.	.	.	.	16ccc#yJ)
.	.	32a#yJ 32cc#y 32ff#y	.	.	32ff#yJ	.
.	8G#	16.g#L 16.b 16.ff#y	4r	8r	16.ff#yL	(>32bbL
.	.	.	.	.	.	32ccc#y
.	.	.	.	.	.	16bb)
.	.	32g#y 32b 32ff#y	.	.	32ff#y	.
.	8A#J	16.f#y 16.cc#y 16.ee	.	16.f#yL	16.ff#y	(>32ccc#y
.	.	.	.	.	.	32ddd
.	.	.	.	.	.	16ccc#yJ)
.	.	32f#yJ 32cc#y 32ee	.	32f#yJ	32ff#yJ	.
.	8BL	16.bL 16.dd 16.ff#y	4D	4f#y	4ff#y	4ddd
.	.	32b 32dd	.	.	.	.
.	8BBJ	8bJ 8dd 8gg	.	.	.	.
.	8r	16.r	8r	8r	8r	8r
.	.	32ff#yL	.	.	.	.
.	16.c#yL	16.an 16.ee 16.gg	16.AAL	16.aL	16.eeL	16.aaL
.	32c#yJ	32aJ 32ee	32AAJ	32aJ	32eeJ	32aaJ
=20	=20	=20	=20	=20	=20	=20
.	4d	16.ddL 16.ff#y	4D	4a	4ff#y	4aa
.	.	32ff#y 32aa	.	.	.	.
.	.	8aJ 8ccn	.	.	.	.
.	8r	16.r	8r	8r	8r	8r
.	.	32bL	.	.	.	.
.	16.F#yL	16.a 16.cc	16.DL	16.aL	16.ddL	16.aaL
.	32F#yJ	32eJ 32a	32DJ	32aJ	32ddJ	32aaJ
.	16.GL	16.dL 16.g 16.b	8DL	8dL	8ddL	8ggL
.	32G	32d 32g 32b	.	.	.	.
.	16.F#y	16.d 16.a 16.dd	8D	8a	16.dd	(>32aa
.	.	.	.	.	.	32bb
.	.	.	.	.	.	16aaJ)
.	32F#yJ	32aJ 32dd	.	.	32ddJ	.
.	16.EL	16.aL 16.cc# 16.gg	8AA	8a	16.eeL	16ggL
.	.	.	.	.	.	32aa
.	32E	32gg	.	.	32ee	32gg
.	16.D	16.a 16.dd 16.ff#y	8DJ	8aJ	16.a	16ff#y
.	.	.	.	.	.	32gg
.	32DJ	32aJ 32dd 32ff#y	.	.	32aJ	32ff#yJ
*v	*v	*	*	*	*	*
!!LO:LB
=21	=21	=21	=21	=21	=21
*	*	*	*	*	*^
.	16.aL 16.cc#y 16.ee	8AAL	8aL	8aL	8eeL	16.AL
.	32e 32a	.	.	.	.	32A
.	16.e 16.a 16.cc#y	16.AA	16.a	16.a	(>32ee	16.G
.	.	.	.	.	32ff#y	.
.	.	.	.	.	16eeJ)	.
.	32eJ 32a	32AAJ	32aJ	32aJ	.	32GJ
.	16.aL 16.dd 16.aa	16.AAL	16.aL	16.aL	(>32aaL	16.F#yL
.	.	.	.	.	32bb	.
.	.	.	.	.	16aa)	.
.	32a 32dd 32aa	32AA	32a	32a	.	32F#y
.	16.a 16.cc#y 16.gg	16.AA	16.a	16.ee	(>32gg	16.E
.	.	.	.	.	32aa	.
.	.	.	.	.	16ggJ)	.
.	32aJ 32cc#y 32gg	32AAJ	32aJ	32eeJ	.	32EJ
.	16.aL 16.dd 16.ff#y	8DL	8aL	8aL	16ff#yL	16.dL
.	.	.	.	.	32gg	.
.	32a 32dd 32ff#y	.	.	.	32ff#y	32d
.	16.e 16.a 16.ee	16.AA	16.a	16.ee	16ee	16.c#y
.	.	.	.	.	32ff#y	.
.	32eJ 32a 32ee	32AAJ	32aJ	32eeJ	32eeJ	32c#yJ
.	16.gL 16.dd 16.gg	16.DL	16.dL	16.ddL	(>32ggL	16.BL
.	.	.	.	.	32aa	.
.	.	.	.	.	16gg)	.
.	32g 32dd 32gg	32D	32d	32dd	.	32B
.	16.a 16.dd 16.ff#y	16.D	16.d	16.dd	(>32ff#y	16.A
.	.	.	.	.	32gg	.
.	.	.	.	.	16ff#yJ)	.
.	32aJ 32dd 32ff#y	32DJ	32dJ	32ddJ	.	32AJ
*	*	*	*	*	*v	*v
=22	=22	=22	=22	=22	=22
*^	*	*	*	*	*
.	16.GL	16.ddL 16.gg 16.bb	4D	4d	8ddL	8bbL
.	32G	32dd 32gg 32bb	.	.	.	.
.	16.G	16.b 16.dd 16.gg	.	.	16.dd	(>32bb
.	.	.	.	.	.	32ccc#y
.	.	.	.	.	.	16bbJ)
.	32GJ	32bJ 32dd 32gg	.	.	32ddJ	.
.	16.GGL	16.bL 16.ee	4r	4r	16.eeL	(>32ggL
.	.	.	.	.	.	32aa
.	.	.	.	.	.	16gg)
.	32GG	32b 32ee	.	.	32ee	.
.	16.GG	16.e 16.b	.	.	16.ee	(>32aa
.	.	.	.	.	.	32bb
.	.	.	.	.	.	16aaJ)
.	32GGJ	32eJ 32b	.	.	32eeJ	.
.	4G	16.eL 16.a 16.cc#y	4AA	4a	4ee	4aa
.	.	32e 32a	.	.	.	.
.	.	8cc#yJ 8ee 8aa	.	.	.	.
.	8r	16.r	8r	8r	8r	8r
.	.	32cc#yL	.	.	.	.
.	16.F#yL	16.a 16.dd	16.AAL	16.aL	16.ddL	16.aaL
.	32F#yJ	32dJ 32a	32AAJ	32aJ	32ddJ	32aaJ
=23	=23	=23	=23	=23	=23	=23
.	16.GL	16.dL 16.g 16.b	16.DL	16.dL	16.ddL	16.ggL
.	32G	32b 32dd 32gg	32D	32d	32dd	32gg
.	16.F#y	16.dd 16.aa	16.D	16.d	16.dd	16.aa
.	32GJ	32ddJ 32bb	32DJ	32dJ	32ggJ	32bbJ
.	8AL	8.aL 8.dd 8.ee	8AAL	8.aL	8.eeLT	8.ggLT
.	8AAJ	.	8AAJ	.	.	.
.	.	16eJ 16a 16cc#y	.	16aJ	16ddJ	16ff#yJ
.	4D	4f#y 4a 4dd	4D	8aL	8ddL	8ff#yL
.	.	.	.	16.a	16.a	16.a
.	.	.	.	32aJ	32aJ	32aJ
.	8r	8r	8r	16.aL	16.aL	16.aL
.	.	.	.	32a	32a	32a
.	16.C#yL	16.eL 16.a 16.ee	16.AAL	16.a	16.a	16.a
.	32AAJ	32eJ 32a 32cc#y	32AAJ	32aJ	32aJ	32aJ
=24	=24	=24	=24	=24	=24	=24
.	4D	4f#y 4a 4dd	4D	16.f#yL	16.f#yL	16.f#yL
.	.	.	.	32d	32d	32d
.	.	.	.	16.a	16.a	16.a
.	.	.	.	32aJ	32aJ	32aJ
.	8r	8r	8r	16.aL	16.aL	16.aL
.	.	.	.	32a	32a	32a
.	16.C#yL	16.eL 16.a 16.ee	16.AAL	16.a	16.a	16.a
.	32AAJ	32eJ 32a 32cc#y	32AAJ	32aJ	32aJ	32aJ
.	4D	16.f#yL 16.a 16.dd	4D	4f#y	4f#y	4a
.	.	32a	.	.	.	.
.	.	16.aa	.	.	.	.
.	.	32aaJ	.	.	.	.
.	8r	16.aaL	8r	8r	8r	8r
.	.	32aa	.	.	.	.
.	16.C#yL	16.a 16.ee 16.aa	16.AAL	16.aL	16.eeL	16.aaL
.	32AAJ	32cc#yJ 32ee 32aa	32AAJ	32aJ	32eeJ	32aaJ
=25	=25	=25	=25	=25	=25	=25
*	*^	*^	*	*	*	*
.	.	16.DL	16.ddL 16.ff#y	16.aL	8DL	8aL	8ddL	16.ff#yL
.	.	32E	32g	32e	.	.	.	32gg
.	.	16.F#y	16.a	16.d	8DJ	8aJ	8aJ	16.aa
.	.	32GJ	32bJ	32gJ	.	.	.	32bbJ
.	.	16.AL	16.cc#yL	8..eL 8..a	8..AAL	8..aL	8aL	16.eeL
.	.	32A	32cc#y	.	.	.	.	32ff#y
.	.	16.B	16.dd	.	.	.	16.dd	16.gg
.	.	32c#yJ	32eeJ	32eJ 32a	32AAJ	32aJ	32eeJ	32aaJ
.	.	8dL	16.ddL 16.ff#y	8aL	8DL	8aL	8ddL	8.ff#yLT
.	.	.	32ee	.	.	.	.	.
.	.	16.F#y	16.dd	16.a	16.D	8aJ	8dd	.
.	.	.	.	.	.	.	.	16eeJ
.	.	32GJ	32ddJ	32gJ	32DJ	.	.	.
.	.	8AL	8.eeL	8aL 8dd	16.AAL	16.aL	8dd	8.eeLT
.	.	.	.	.	32AA	32a	.	.
.	.	8AAJ	.	8eJ 8g 8a	16.AA	16.a	8aJ	.
.	.	.	16ddJ	.	.	.	.	16ddJ
.	.	.	.	.	32AAJ	32aJ	.	.
*	*v	*v	*	*	*	*	*	*
*	*	*v	*v	*	*	*	*
=26	=26	=26	=26	=26	=26	=26
.	4D	8f#yL 8a 8dd	4D	4a	4a	4dd
.	.	8a 8dd 8ff#y	.	.	.	.
.	8F#yL	8d 8f#y 8a	4r	4r	4r	4r
.	8AJ	8eJ 8g 8cc#y	.	.	.	.
.	4D	4f#y 4a 4dd	2r	2r	2r	2r
.	4r	4r	.	.	.	.
*v	*v	*	*	*	*	*
!!LO:LB
=27	=27	=27	=27	=27	=27
!	!	!	!	!	!LO:TX:a:iB:t=Grave
*^	*^	*	*	*	*
*	*^	*	*	*	*	*	*
.	.	2A# 2e	4.ff#y	2cc#y	1r	1r	1r	1r
.	.	.	8gg	.	.	.	.	.
.	.	2r	16eeL	2r	.	.	.	.
.	.	.	32dd	.	.	.	.	.
.	.	.	32ee	.	.	.	.	.
.	.	.	16ff#y	.	.	.	.	.
.	.	.	32ee	.	.	.	.	.
.	.	.	32ff#yJ	.	.	.	.	.
.	.	.	32ggL	.	.	.	.	.
.	.	.	32ff#y	.	.	.	.	.
.	.	.	32ee	.	.	.	.	.
.	.	.	32ff#y	.	.	.	.	.
.	.	.	32gg	.	.	.	.	.
.	.	.	32ff#y	.	.	.	.	.
.	.	.	32gg	.	.	.	.	.
.	.	.	32aaJ	.	.	.	.	.
=28	=28	=28	=28	=28	=28	=28	=28	=28
.	.	2A 2f#y	4.bb	2dd#	1r	1r	1r	1r
.	.	.	8aa	.	.	.	.	.
.	.	2r	12ggL	2r	.	.	.	.
.	.	.	12ff#y	.	.	.	.	.
.	.	.	12ggJ	.	.	.	.	.
.	.	.	16eeL	.	.	.	.	.
.	.	.	32ff#y	.	.	.	.	.
.	.	.	32gg	.	.	.	.	.
.	.	.	16ff#y	.	.	.	.	.
.	.	.	32ee	.	.	.	.	.
.	.	.	32dd#J	.	.	.	.	.
*	*v	*v	*	*	*	*	*	*
*	*	*v	*v	*	*	*	*
=29	=29	=29	=29	=29	=29	=29
.	4G#	4ee	1r	1r	1r	1r
.	4G#y	4dd 4ee	.	.	.	.
.	4G#y	4b 4dd 4ee	.	.	.	.
.	4G#y	4e 4b 4dd 4ee	.	.	.	.
=30	=30	=30	=30	=30	=30	=30
.	2A; 2e;	2a; 2cc#y 2ee;	1r	1r	1r	1r
.	2r	2r	.	.	.	.
==31	==31	==31	==31	==31	==31	==31
!	!	!	!	!	!	!LO:TX:a:iB:t=2 - Allegro
.	1r	4a	1r	1r	1r	1r
.	.	4dd	.	.	.	.
.	.	4cc#y	.	.	.	.
.	.	8r	.	.	.	.
.	.	16bL	.	.	.	.
.	.	16aJ	.	.	.	.
=32	=32	=32	=32	=32	=32	=32
*	*^	*^	*	*	*	*
.	.	1r	2.r	8bL	1r	1r	1r	1r
.	.	.	.	8b	.	.	.	.
.	.	.	.	8ee	.	.	.	.
.	.	.	.	8eeJ	.	.	.	.
.	.	.	.	4a	.	.	.	.
.	.	.	8aaL	[4f#y	.	.	.	.
.	.	.	16gg	.	.	.	.	.
.	.	.	16ff#yJ	.	.	.	.	.
*v	*v	*v	*	*	*	*	*	*
=33	=33	=33	=33	=33	=33	=33
*	*	*	*	*	*	*^
*	*	*	*	*	*	*	*^
.	8bbL	4f#y]	1r	1r	1r	1r	.	1r
.	8bJ	.	.	.	.	.	.	.
.	8ggL	2e	.	.	.	.	.	.
.	16ff#y	.	.	.	.	.	.	.
.	16eeJ	.	.	.	.	.	.	.
.	8aaL	.	.	.	.	.	.	.
.	8aJ	.	.	.	.	.	.	.
.	8ff#yL	[4d	.	.	.	.	.	.
.	16ee	.	.	.	.	.	.	.
.	16ddJ	.	.	.	.	.	.	.
*	*	*	*	*	*	*v	*v	*v
=34	=34	=34	=34	=34	=34	=34
*^	*	*	*	*	*	*
*	*^	*	*	*	*	*	*
.	.	2r	8ggL	8dL]	1r	1r	1r	1r
.	.	.	8ff#yJ	8ddJ	.	.	.	.
.	.	.	8eeL	4cc#y	.	.	.	.
.	.	.	16ff#y	.	.	.	.	.
.	.	.	16ggJ	.	.	.	.	.
.	.	4D	8ff#yL	8bL	.	.	.	.
.	.	.	16ee	16a	.	.	.	.
.	.	.	16ddJ	16gJ	.	.	.	.
.	.	4G	4ee	4r	.	.	.	.
=35	=35	=35	=35	=35	=35	=35	=35	=35
.	.	4F#y	8r	4a	1r	1r	1r	1r
.	.	.	16ddL	.	.	.	.	.
.	.	.	16cc#yJ	.	.	.	.	.
.	.	8r	2dd	8r	.	.	.	.
.	.	16EL	.	16gL	.	.	.	.
.	.	16DJ	.	16f#yJ	.	.	.	.
.	.	8EL	.	8gL	.	.	.	.
.	.	8E	.	16a	.	.	.	.
.	.	.	.	16bJ	.	.	.	.
.	.	8A	4cc#y	8aL	.	.	.	.
.	.	8AJ	.	8gJ	.	.	.	.
=36	=36	=36	=36	=36	=36	=36	=36	=36
.	.	4D	8ddL	4f#y	1r	1r	1r	1r
.	.	.	16ee	.	.	.	.	.
.	.	.	16ff#yJ	.	.	.	.	.
.	.	4G#	8eeL	4b	.	.	.	.
.	.	.	8ddJ	.	.	.	.	.
.	.	4A	8cc#yL	4a	.	.	.	.
.	.	.	16dd	.	.	.	.	.
.	.	.	16eeJ	.	.	.	.	.
.	.	4d	8ff#yL	4r	.	.	.	.
.	.	.	16ee	.	.	.	.	.
.	.	.	16ddJ	.	.	.	.	.
!!LO:LB
=37	=37	=37	=37	=37	=37	=37	=37	=37
.	.	4c#y	8eeL	4r	1r	1r	1r	1r
.	.	.	8aJ	.	.	.	.	.
.	.	8r	2aa	8eeL	.	.	.	.
.	.	16BL	.	16dd	.	.	.	.
.	.	16AJ	.	16cc#yJ	.	.	.	.
.	.	8BL	.	8ddL	.	.	.	.
.	.	8B	.	8cc#yJ	.	.	.	.
.	.	8e	4gg#	8bL	.	.	.	.
.	.	8eJ	.	16cc#y	.	.	.	.
.	.	.	.	16ddJ	.	.	.	.
=38	=38	=38	=38	=38	=38	=38	=38	=38
.	.	4A	8aaL	4cc#y	1r	1r	1r	1r
.	.	.	8gg#J	.	.	.	.	.
.	.	4.B	8ff#yL	4dd#	.	.	.	.
.	.	.	16gg#y	.	.	.	.	.
.	.	.	16aaJ	.	.	.	.	.
.	.	.	8gg#yL	8ee	.	.	.	.
.	.	16AL	16ff#y	8r	.	.	.	.
.	.	16G#J	16eeJ	.	.	.	.	.
.	.	4A	4ff#y	8cc#yL	.	.	.	.
.	.	.	.	16b	.	.	.	.
.	.	.	.	16aJ	.	.	.	.
=39	=39	=39	=39	=39	=39	=39	=39	=39
.	.	4G#	8r	4b	1r	1r	1r	1r
.	.	.	16eeL	.	.	.	.	.
.	.	.	16dd#J	.	.	.	.	.
.	.	8r	2ee	8r	.	.	.	.
.	.	16F#yL	.	16aL	.	.	.	.
.	.	16EJ	.	16g#J	.	.	.	.
.	.	8F#yL	.	8aL	.	.	.	.
.	.	8F#y	.	8g#yJ	.	.	.	.
.	.	8B	4dd#y	8f#yL	.	.	.	.
.	.	8BJ	.	16g#y	.	.	.	.
.	.	.	.	16aJ	.	.	.	.
=40	=40	=40	=40	=40	=40	=40	=40	=40
.	.	4E	8eeL	4g#	1r	1r	1r	1r
.	.	.	16ff#y	.	.	.	.	.
.	.	.	16gg#J	.	.	.	.	.
.	.	2c#y	16aaL	8eeL	.	.	.	.
.	.	.	16gg#y	.	.	.	.	.
.	.	.	16ff#y	16dd	.	.	.	.
.	.	.	16eeJ	16cc#yJ	.	.	.	.
.	.	.	8ddL	4f#y	.	.	.	.
.	.	.	16ee	.	.	.	.	.
.	.	.	16ff#yJ	.	.	.	.	.
.	.	[4B	16gg#yL	8ddL	.	.	.	.
.	.	.	16ff#y	.	.	.	.	.
.	.	.	16ee	16cc#y	.	.	.	.
.	.	.	16ddJ	16bJ	.	.	.	.
=41	=41	=41	=41	=41	=41	=41	=41	=41
.	.	4B]	8cc#yL	4e	1r	1r	1r	1r
.	.	.	16dd	.	.	.	.	.
.	.	.	16eeJ	.	.	.	.	.
.	.	2A	16ff#yL	8cc#yL	.	.	.	.
.	.	.	16ee	.	.	.	.	.
.	.	.	16dd	16b	.	.	.	.
.	.	.	16cc#yJ	16aJ	.	.	.	.
.	.	.	8bL	8ddL	.	.	.	.
.	.	.	16cc#y	8cc#yJ	.	.	.	.
.	.	.	16ddJ	.	.	.	.	.
.	.	4G#	16eeL	8bL	.	.	.	.
.	.	.	16dd	.	.	.	.	.
.	.	.	16cc#y	16cc#y	.	.	.	.
.	.	.	16bJ	16ddJ	.	.	.	.
=42	=42	=42	=42	=42	=42	=42	=42	=42
.	.	4A	4a	8cc#yL	1r	1r	1r	1r
.	.	.	.	16dd	.	.	.	.
.	.	.	.	16eeJ	.	.	.	.
.	.	8r	2aa	16ff#yL	.	.	.	.
.	.	.	.	16ee	.	.	.	.
.	.	8F#y	.	16dd	.	.	.	.
.	.	.	.	16cc#yJ	.	.	.	.
.	.	4G	.	8bL	.	.	.	.
.	.	.	.	16cc#y	.	.	.	.
.	.	.	.	16ddJ	.	.	.	.
.	.	8r	[4gg	16eeL	.	.	.	.
.	.	.	.	16dd	.	.	.	.
.	.	8E	.	16cc#y	.	.	.	.
.	.	.	.	16bJ	.	.	.	.
=43	=43	=43	=43	=43	=43	=43	=43	=43
.	.	8F#yL	4gg]	8aL	1r	1r	1r	1r
.	.	16G	.	16b	.	.	.	.
.	.	16AJ	.	16cc#yJ	.	.	.	.
.	.	16BL	8ff#yL	2dd	.	.	.	.
.	.	16A	.	.	.	.	.	.
.	.	16G	16gg	.	.	.	.	.
.	.	16F#yJ	16aaJ	.	.	.	.	.
.	.	8EL	8ggL	.	.	.	.	.
.	.	16F#y	8ff#yJ	.	.	.	.	.
.	.	16GJ	.	.	.	.	.	.
.	.	16AL	8eeL	4cc#y	.	.	.	.
.	.	16G	.	.	.	.	.	.
.	.	16F#y	16ff#y	.	.	.	.	.
.	.	16EJ	16ggJ	.	.	.	.	.
=44	=44	=44	=44	=44	=44	=44	=44	=44
.	.	8DL	8ff#yL	4b	1r	1r	4dd	1r
.	.	8dJ	16ff#y	.	.	.	.	.
.	.	.	16eeJ	.	.	.	.	.
.	.	8BL	8ddL	4a	.	.	4gg	.
.	.	16A	16cc#y	.	.	.	.	.
.	.	16GJ	16bJ	.	.	.	.	.
.	.	4D	8aL	8gL	.	.	4ff#y	.
.	.	.	8dJ	8d	.	.	.	.
.	.	8r	[4dd	8f#y	.	.	8r	.
.	.	8d	.	8gJ	.	.	16eeL	.
.	.	.	.	.	.	.	16ddJ	.
!!LO:LB
=45	=45	=45	=45	=45	=45	=45	=45	=45
.	.	4A	4.a	8ddL	1r	1r	8eeL	2r
.	.	.	.	16ccn	.	.	8ee	.
.	.	.	.	16bJ	.	.	.	.
.	.	8r	.	8ccL	.	.	8aa	.
.	.	8F#y	8a	8ccJ	.	.	8aaJ	.
.	.	4G	4dd	8ccL	.	.	4dd	4dd
.	.	.	.	16b	.	.	.	.
.	.	.	.	16aJ	.	.	.	.
.	.	8r	4gg	8bL	.	.	4r	4gg
.	.	8GG	.	8ddJ	.	.	.	.
=46	=46	=46	=46	=46	=46	=46	=46	=46
.	.	4D	4ff#y	8aL	1r	1r	4r	4ff#y
.	.	.	.	8dJ	.	.	.	.
.	.	4r	8r	2dd	.	.	8aaL	8r
.	.	.	16eeL	.	.	.	16gg	16eeL
.	.	.	16ddJ	.	.	.	16ff#yJ	16ddJ
.	.	2r	8eeL	.	.	.	8ggL	8eeL
.	.	.	8ee	.	.	.	8ff#yJ	8ee
.	.	.	8aa	4cc#y	.	.	8eeL	8aa
.	.	.	8aaJ	.	.	.	16ff#y	8aaJ
.	.	.	.	.	.	.	16ggJ	.
=47	=47	=47	=47	=47	=47	=47	=47	=47
.	.	4r	4dd	4dd	1r	1r	8ff#yL	4dd
.	.	.	.	.	.	.	16aa	.
.	.	.	.	.	.	.	16ggJ	.
.	.	8dL	2bb	8ff#yL	.	.	8ff#yL	2bb
.	.	16c#y	.	16ee	.	.	16ee	.
.	.	16BJ	.	16ddJ	.	.	16ddJ	.
.	.	8eL	.	8gg#L	.	.	8eeL	.
.	.	8EJ	.	8g#J	.	.	16ee	.
.	.	.	.	.	.	.	16ddJ	.
.	.	8c#yL	[4aa	8eeL	.	.	8eeL	[4aa
.	.	16B	.	16dd	.	.	16dd	.
.	.	16AJ	.	16cc#yJ	.	.	16cc#yJ	.
*v	*v	*v	*	*	*	*	*	*
=48	=48	=48	=48	=48	=48	=48
*	*	*	*	*	*	*^
*	*	*	*	*	*	*	*^
.	4aa	8ff#yL	1r	1r	4dd	4aa]]	.	8dL
.	.	8eeJ	.	.	.	.	.	8c#yJ
.	4gg#	8ddL	.	.	4dd	4gg#	.	8BL
.	.	16cc#y	.	.	.	.	.	16c#y
.	.	16bJ	.	.	.	.	.	16dJ
.	4aa	8eeL	.	.	4ee	4aa	.	8c#yL
.	.	16dd	.	.	.	.	.	8AJ
.	.	16cc#yJ	.	.	.	.	.	.
.	8aaL	4r	.	.	4ff#y	4r	.	[4f#y
.	16ggn	.	.	.	.	.	.	.
.	16ff#yJ	.	.	.	.	.	.	.
*	*	*	*	*	*	*v	*v	*v
=49	=49	=49	=49	=49	=49	=49
*^	*	*	*	*	*	*
*	*^	*	*	*	*	*	*
.	.	8dL	8bbL	4f#y]	1r	1r	4r	4bb
.	.	16c#y	8bJ	.	.	.	.	.
.	.	16BJ	.	.	.	.	.	.
.	.	8eL	8ggL	4g	.	.	4gg	4r
.	.	8EJ	16ff#y	.	.	.	.	.
.	.	.	16eeJ	.	.	.	.	.
.	.	8c#yL	8aaL	4e	.	.	4r	4aa
.	.	16B	8aJ	.	.	.	.	.
.	.	16AJ	.	.	.	.	.	.
.	.	8dL	8ff#yL	4f#y	.	.	4ff#y	4r
.	.	8DJ	16ee	.	.	.	.	.
.	.	.	16ddJ	.	.	.	.	.
=50	=50	=50	=50	=50	=50	=50	=50	=50
.	.	8BL	8ggL	4d	1r	1r	4r	4gg
.	.	16A	8gJ	.	.	.	.	.
.	.	16GJ	.	.	.	.	.	.
.	.	8c#yL	8eeL	4e	.	.	4ee	4r
.	.	8C#yJ	16dd	.	.	.	.	.
.	.	.	16cc#yJ	.	.	.	.	.
.	.	8A#L	8ff#yL	4c#y	.	.	4r	4ff#y
.	.	16G#	8f#yJ	.	.	.	.	.
.	.	16F#yJ	.	.	.	.	.	.
.	.	8BL	8ddL	4d	.	.	4dd	4r
.	.	8BBJ	16cc#y	.	.	.	.	.
.	.	.	[16bJ	.	.	.	.	.
=51	=51	=51	=51	=51	=51	=51	=51	=51
*	*	*^	*	*	*	*	*	*
.	.	2.r	4E	8eeL	4b	1r	1r	1r	1r
.	.	.	.	8ddJ	.	.	.	.	.
.	.	.	4F#y	8cc#yL	4a#	.	.	.	.
.	.	.	.	16dd	.	.	.	.	.
.	.	.	.	16eeJ	.	.	.	.	.
.	.	.	8F#yL	8ddL	4b	.	.	.	.
.	.	.	16E	16ee	.	.	.	.	.
.	.	.	16DJ	16ff#yJ	.	.	.	.	.
.	.	4e	8EL	8ggL	4r	.	.	.	.
.	.	.	16F#y	16ff#y	.	.	.	.	.
.	.	.	16GJ	16eeJ	.	.	.	.	.
*	*	*v	*v	*	*	*	*	*	*
=52	=52	=52	=52	=52	=52	=52	=52	=52
.	.	4D	8ff#yL	4r	1r	1r	1r	1r
.	.	.	8bJ	.	.	.	.	.
.	.	8r	2bb	8ff#yL	.	.	.	.
.	.	16C#yL	.	16ee	.	.	.	.
.	.	16BBJ	.	16ddJ	.	.	.	.
.	.	8C#yL	.	8eeL	.	.	.	.
.	.	8C#y	.	8ddJ	.	.	.	.
.	.	8F#y	4aa#	8cc#yL	.	.	.	.
.	.	8F#yJ	.	16dd	.	.	.	.
.	.	.	.	16eeJ	.	.	.	.
=53	=53	=53	=53	=53	=53	=53	=53	=53
.	.	8DL	4bb	4b	1r	1r	1r	1r
.	.	16E	.	.	.	.	.	.
.	.	16F#yJ	.	.	.	.	.	.
.	.	8GL	4ee	4.b	.	.	.	.
.	.	16F#y	.	.	.	.	.	.
.	.	16EJ	.	.	.	.	.	.
.	.	8F#yL	4dd	.	.	.	.	.
.	.	8F#yJ	.	8a	.	.	.	.
.	.	[4B	8r	16gL	.	.	.	.
.	.	.	.	16f#y	.	.	.	.
.	.	.	16cc#yL	16e	.	.	.	.
.	.	.	16bJ	16dJ	.	.	.	.
=54	=54	=54	=54	=54	=54	=54	=54	=54
.	.	4B]	8cc#yL	8eL	1r	1r	1r	1r
.	.	.	8cc#y	16f#y	.	.	.	.
.	.	.	.	16gJ	.	.	.	.
.	.	4A	8ff#y	2f#y	.	.	.	.
.	.	.	8ff#yJ	.	.	.	.	.
.	.	8GL	4b	.	.	.	.	.
.	.	16A	.	.	.	.	.	.
.	.	16BJ	.	.	.	.	.	.
.	.	16cnL	[4ee	8eL	.	.	.	.
.	.	16B	.	.	.	.	.	.
.	.	16A	.	16f#y	.	.	.	.
.	.	16GJ	.	16gJ	.	.	.	.
*v	*v	*v	*	*	*	*	*	*
!!LO:LB
=55	=55	=55	=55	=55	=55	=55
*	*	*	*	*	*	*^
*	*	*	*	*	*	*	*^
.	4ee]	8aL	1r	1r	1r	1r	.	8F#yL
.	.	8gJ	.	.	.	.	.	16G
.	.	.	.	.	.	.	.	16AJ
.	4dd#	8f#yL	.	.	.	.	.	16BL
.	.	.	.	.	.	.	.	16A
.	.	16g	.	.	.	.	.	16G
.	.	16aJ	.	.	.	.	.	16F#yJ
.	[4ee	8gL	.	.	.	.	.	8EL
.	.	16a	.	.	.	.	.	16F#y
.	.	16bJ	.	.	.	.	.	16GJ
.	8eeL]	[4ccn	.	.	.	.	.	16AL
.	.	.	.	.	.	.	.	16G
.	16ff#y	.	.	.	.	.	.	16F#y
.	16ggJ	.	.	.	.	.	.	16EJ
*	*	*	*	*	*	*v	*v	*v
=56	=56	=56	=56	=56	=56	=56
*^	*	*	*	*	*	*
*	*^	*	*	*	*	*	*
*	*	*^	*	*	*	*	*	*
.	.	4F#y	[1DD	8ff#yL	4cc]	1r	1r	1r	1r
.	.	.	.	16gg	.	.	.	.	.
.	.	.	.	16aaJ	.	.	.	.	.
.	.	4B	.	16bbL	2dd	.	.	.	.
.	.	.	.	16aa	.	.	.	.	.
.	.	.	.	16gg	.	.	.	.	.
.	.	.	.	16ff#yJ	.	.	.	.	.
.	.	4G	.	8eeL	.	.	.	.	.
.	.	.	.	16ff#y	.	.	.	.	.
.	.	.	.	16ggJ	.	.	.	.	.
.	.	4A	.	16aaL	[4ccn	.	.	.	.
.	.	.	.	16gg	.	.	.	.	.
.	.	.	.	16ff#y	.	.	.	.	.
.	.	.	.	16eeJ	.	.	.	.	.
=57	=57	=57	=57	=57	=57	=57	=57	=57	=57
.	.	4F#y	1DD_	8ddL	4cc]	1r	1r	1r	1r
.	.	.	.	16ee	.	.	.	.	.
.	.	.	.	16ff#yJ	.	.	.	.	.
.	.	4G	.	16ggL	2b	.	.	.	.
.	.	.	.	16ff#y	.	.	.	.	.
.	.	.	.	16ee	.	.	.	.	.
.	.	.	.	16ddJ	.	.	.	.	.
.	.	4E	.	8ccnL	.	.	.	.	.
.	.	.	.	16dd	.	.	.	.	.
.	.	.	.	16eeJ	.	.	.	.	.
.	.	4F#y	.	16ff#yL	[4a	.	.	.	.
.	.	.	.	16ee	.	.	.	.	.
.	.	.	.	16dd	.	.	.	.	.
.	.	.	.	16ccJ	.	.	.	.	.
=58	=58	=58	=58	=58	=58	=58	=58	=58	=58
.	.	4D	1DD]	8bL	4a]	1r	1r	1r	1r
.	.	.	.	16ccn	.	.	.	.	.
.	.	.	.	16ddJ	.	.	.	.	.
.	.	4E	.	16eeL	2g	.	.	.	.
.	.	.	.	16dd	.	.	.	.	.
.	.	.	.	16cc	.	.	.	.	.
.	.	.	.	16bJ	.	.	.	.	.
.	.	4G	.	8aL	.	.	.	.	.
.	.	.	.	16b	.	.	.	.	.
.	.	.	.	16ccJ	.	.	.	.	.
.	.	8.AL	.	16ddL	4f#y	.	.	.	.
.	.	.	.	16cc	.	.	.	.	.
.	.	.	.	16b	.	.	.	.	.
.	.	16GJ	.	16aJ	.	.	.	.	.
*v	*v	*v	*v	*	*	*	*	*	*
=59	=59	=59	=59	=59	=59	=59
*	*	*^	*	*	*	*
.	8bL	8gL	4GG	1r	1r	1r	1r
.	16gg	16b	.	.	.	.	.
.	16ff#yJ	16aJ	.	.	.	.	.
.	8eeL	4g	4Cn	.	.	.	.
.	16dd	.	.	.	.	.	.
.	16ccnJ	.	.	.	.	.	.
.	4dd	4g	4BB	.	.	.	.
.	4gg	8r	8r	.	.	.	.
.	.	16ccnL	16AL	.	.	.	.
.	.	16bJ	16GJ	.	.	.	.
=60	=60	=60	=60	=60	=60	=60	=60
.	4ff#y	8ccnL	8AL	1r	1r	1r	1r
.	.	8bJ	8A	.	.	.	.
.	8r	8aL	8d	.	.	.	.
.	16eeL	16b	8dJ	.	.	.	.
.	16ddJ	16ccJ	.	.	.	.	.
.	8eeL	8bL	4G	.	.	.	.
.	8ee	16a	.	.	.	.	.
.	.	16gJ	.	.	.	.	.
.	8aa	8ccL	4F#y	.	.	.	.
.	8aaJ	16b	.	.	.	.	.
.	.	16aJ	.	.	.	.	.
=61	=61	=61	=61	=61	=61	=61	=61
.	4dd	4b	4G	1r	1r	1r	1r
.	2bb	8ddL	4r	.	.	.	.
.	.	16ccn	.	.	.	.	.
.	.	16bJ	.	.	.	.	.
.	.	8eeL	8GL	.	.	.	.
.	.	8f#yJ	16F#y	.	.	.	.
.	.	.	16EJ	.	.	.	.
.	[4aa	8ccL	8AL	.	.	.	.
.	.	16b	8AAJ	.	.	.	.
.	.	16aJ	.	.	.	.	.
=62	=62	=62	=62	=62	=62	=62	=62
.	4aa]	8ddL	8F#yL	1r	1r	1r	1r
.	.	8dJ	16E	.	.	.	.
.	.	.	16DJ	.	.	.	.
.	2gg	8bL	8GL	.	.	.	.
.	.	16a	8GGJ	.	.	.	.
.	.	16gJ	.	.	.	.	.
.	.	8ccnL	8EL	.	.	.	.
.	.	8cnJ	16D	.	.	.	.
.	.	.	16CnJ	.	.	.	.
.	4ff#y	8aL	8DL	.	.	.	.
.	.	16g	8DDJ	.	.	.	.
.	.	16f#yJ	.	.	.	.	.
!!LO:LB
=63	=63	=63	=63	=63	=63	=63	=63
.	16ggL	4g	4GG	1r	1r	1r	1r
.	16dd	.	.	.	.	.	.
.	16ee	.	.	.	.	.	.
.	16ff#yJ	.	.	.	.	.	.
.	16ggL	8ddL	2B	.	.	.	.
.	16ff#y	.	.	.	.	.	.
.	16ee	16ccn	.	.	.	.	.
.	16ddJ	16bJ	.	.	.	.	.
.	8ccnL	8eL	.	.	.	.	.
.	16dd	8eJ	.	.	.	.	.
.	16eeJ	.	.	.	.	.	.
.	16ff#yL	8ccL	[4A	.	.	.	.
.	16ee	.	.	.	.	.	.
.	16dd	16b	.	.	.	.	.
.	16ccJ	16aJ	.	.	.	.	.
=64	=64	=64	=64	=64	=64	=64	=64
.	8bL	8f#yL	4A]	1r	1r	1r	1r
.	16ccn	16e	.	.	.	.	.
.	16ddJ	16f#yJ	.	.	.	.	.
.	16eeL	16gL	2G	.	.	.	.
.	16dd	16f#y	.	.	.	.	.
.	16cc	16e	.	.	.	.	.
.	16bJ	16dJ	.	.	.	.	.
.	8aL	4e	.	.	.	.	.
.	16b	.	.	.	.	.	.
.	16ccJ	.	.	.	.	.	.
.	16ddL	4f#y	4F#y	.	.	.	.
.	16cc	.	.	.	.	.	.
.	16b	.	.	.	.	.	.
.	16aJ	.	.	.	.	.	.
*	*	*v	*v	*	*	*	*
=65	=65	=65	=65	=65	=65	=65
.	8.dLT 8.g 8.b	8GL	1r	1r	1r	1r
.	.	8Cn	.	.	.	.
.	16aJ 16ccn	.	.	.	.	.
.	8.dLT 8.f#y 8.a	8D	.	.	.	.
.	.	8DDJ	.	.	.	.
.	16dJ 16g	.	.	.	.	.
.	8BL 8d 8g	4GG	.	.	.	.
.	8dd	.	.	.	.	.
.	8dd	4r	.	.	.	.
.	8ddJ	.	.	.	.	.
=66	=66	=66	=66	=66	=66	=66
.	16ddL	4G	1r	1r	1r	1r
.	16ccn	.	.	.	.	.
.	16b	.	.	.	.	.
.	16ddJ	.	.	.	.	.
.	16eeL	4cn	.	.	.	.
.	16dd	.	.	.	.	.
.	16cc	.	.	.	.	.
.	16eeJ	.	.	.	.	.
.	16ddL	4B	.	.	.	.
.	16cc	.	.	.	.	.
.	16b	.	.	.	.	.
.	16ccJ	.	.	.	.	.
.	16ddL	8r	.	.	.	.
.	16ee	.	.	.	.	.
.	16ff#y	16AL	.	.	.	.
.	16ggJ	16GJ	.	.	.	.
=67	=67	=67	=67	=67	=67	=67
.	16ccnL	8AL	1r	1r	1r	1r
.	16b	.	.	.	.	.
.	16a	8A	.	.	.	.
.	16bJ	.	.	.	.	.
.	16ccL	8d	.	.	.	.
.	16ee	.	.	.	.	.
.	16dd	8dJ	.	.	.	.
.	16ccJ	.	.	.	.	.
.	16bL	4G	.	.	.	.
.	16a	.	.	.	.	.
.	16b	.	.	.	.	.
.	16ccJ	.	.	.	.	.
.	16ddL	4r	.	.	.	.
.	16ee	.	.	.	.	.
.	16ff#y	.	.	.	.	.
.	16ggJ	.	.	.	.	.
=68	=68	=68	=68	=68	=68	=68
.	16ccnL	4F#y 4d	1r	1r	1r	1r
.	16b	.	.	.	.	.
.	16a	.	.	.	.	.
.	16bJ	.	.	.	.	.
.	16ccL	4r	.	.	.	.
.	16ee	.	.	.	.	.
.	16dd	.	.	.	.	.
.	16ccJ	.	.	.	.	.
.	8bL	4G 4d	.	.	.	.
.	16cc	.	.	.	.	.
.	16ddJ	.	.	.	.	.
.	8eeL	4cn 4e	.	.	.	.
.	16dd	.	.	.	.	.
.	16ccJ	.	.	.	.	.
=69	=69	=69	=69	=69	=69	=69
*	*	*^	*	*	*	*
.	8ddL	4g	4B 4d	1r	1r	1r	1r
.	16ee	.	.	.	.	.	.
.	16ff#yJ	.	.	.	.	.	.
.	2gg	8r	8r	.	.	.	.
.	.	16ccnL	16AL	.	.	.	.
.	.	16bJ	16GJ	.	.	.	.
.	.	[4cc	8AL	.	.	.	.
.	.	.	8A	.	.	.	.
.	4ff#y	8ccL]	8d	.	.	.	.
.	.	16b	8dJ	.	.	.	.
.	.	16aJ	.	.	.	.	.
=70	=70	=70	=70	=70	=70	=70	=70
.	8ggL	4g 4b	4G	1r	1r	1r	1r
.	8ee	.	.	.	.	.	.
.	8ee	4r	4r	.	.	.	.
.	8eeJ	.	.	.	.	.	.
.	16ddL	2r	4A 4e	.	.	.	.
.	16dd	.	.	.	.	.	.
.	16cc#y	.	.	.	.	.	.
.	16eeJ	.	.	.	.	.	.
.	16ff#yL	.	4d 4f#y	.	.	.	.
.	16ee	.	.	.	.	.	.
.	16dd	.	.	.	.	.	.
.	16ff#yJ	.	.	.	.	.	.
*	*	*v	*v	*	*	*	*
!!LO:LB
=71	=71	=71	=71	=71	=71	=71
.	16eeL	4c#y 4a	1r	1r	1r	1r
.	16dd	.	.	.	.	.
.	16cc#y	.	.	.	.	.
.	16ddJ	.	.	.	.	.
.	16eeL	8r	.	.	.	.
.	16dd	.	.	.	.	.
.	16dd	16BL	.	.	.	.
.	16cc#yJ	16AJ	.	.	.	.
.	16ddL	8BL	.	.	.	.
.	16cc#y	.	.	.	.	.
.	16b	8B	.	.	.	.
.	16cc#yJ	.	.	.	.	.
.	16ddL	8e	.	.	.	.
.	16cc#y	.	.	.	.	.
.	16cc#y	8eJ	.	.	.	.
.	16bJ	.	.	.	.	.
=72	=72	=72	=72	=72	=72	=72
.	16cc#yL	4A 4c#y 4e	1r	1r	1r	1r
.	16b	.	.	.	.	.
.	16cc#y	.	.	.	.	.
.	16ddJ	.	.	.	.	.
.	16eeL	4r	.	.	.	.
.	16dd	.	.	.	.	.
.	16dd	.	.	.	.	.
.	16cc#yJ	.	.	.	.	.
.	16ddL	4G# 4B 4d 4e	.	.	.	.
.	16cc#y	.	.	.	.	.
.	16b	.	.	.	.	.
.	16cc#yJ	.	.	.	.	.
.	16ddL	4r	.	.	.	.
.	16cc#y	.	.	.	.	.
.	16cc#y	.	.	.	.	.
.	16bJ	.	.	.	.	.
=73	=73	=73	=73	=73	=73	=73
*	*	*^	*	*	*	*
.	8cc#yL	4a	4AA	1r	1r	1r	1r
.	16dd	.	.	.	.	.	.
.	16eeJ	.	.	.	.	.	.
.	8ff#yL	4a	4D	.	.	.	.
.	16ee	.	.	.	.	.	.
.	16ddJ	.	.	.	.	.	.
.	8eeL	4a	4C#y	.	.	.	.
.	16ff#y	.	.	.	.	.	.
.	16gg#J	.	.	.	.	.	.
.	[4aa	8r	8r	.	.	.	.
.	.	16bL	16BBL	.	.	.	.
.	.	16cc#yJ	16AAJ	.	.	.	.
=74	=74	=74	=74	=74	=74	=74	=74
.	4aa]	8ddL	8BBL	1r	1r	1r	1r
.	.	16ee	8BB	.	.	.	.
.	.	16ff#yJ	.	.	.	.	.
.	4gg#	8eeL	8E	.	.	.	.
.	.	8ddJ	8EJ	.	.	.	.
.	4aa	4a 4cc#y	4AA	.	.	.	.
.	4dd	4r	4r	.	.	.	.
*	*	*v	*v	*	*	*	*
=75	=75	=75	=75	=75	=75	=75
.	4cc#y	4r	1r	1r	1r	1r
.	8r	2A	.	.	.	.
.	16bL	.	.	.	.	.
.	16aJ	.	.	.	.	.
.	8bL	.	.	.	.	.
.	8b	.	.	.	.	.
.	8ee	[4G	.	.	.	.
.	8eeJ	.	.	.	.	.
=76	=76	=76	=76	=76	=76	=76
.	4a	4G]	1r	1r	1r	1r
.	8aaL	2F#y	.	.	.	.
.	16gg	.	.	.	.	.
.	16ff#yJ	.	.	.	.	.
.	8bbL	.	.	.	.	.
.	8bJ	.	.	.	.	.
.	8ggL	[4E	.	.	.	.
.	16ff#y	.	.	.	.	.
.	16eeJ	.	.	.	.	.
=77	=77	=77	=77	=77	=77	=77
.	8aaL	4E]	1r	1r	1r	1r
.	8aJ	.	.	.	.	.
.	8ff#yL	2D	.	.	.	.
.	16ee	.	.	.	.	.
.	16ddJ	.	.	.	.	.
.	8ggL	.	.	.	.	.
.	8ff#yJ	.	.	.	.	.
.	8eeL	4C#y	.	.	.	.
.	16ff#y	.	.	.	.	.
.	16ggJ	.	.	.	.	.
=78	=78	=78	=78	=78	=78	=78
*	*	*^	*	*	*	*
.	8ff#yL	4a	4D	4D	4d	4dd	4ff#y
.	16gg	.	.	.	.	.	.
.	16aaJ	.	.	.	.	.	.
.	8bbL	4dd	4G	4D	4d	4dd	4bb
.	16aa	.	.	.	.	.	.
.	16ggJ	.	.	.	.	.	.
.	8aaL	4dd	4F#y	4D	4d	4dd	4aa
.	8aJ	.	.	.	.	.	.
.	[4dd	8aL	8r	8r	8r	8r	8r
.	.	16g	16EL	8D	8a	16eeL	16ggL
.	.	16f#yJ	16DJ	.	.	16ff#yJ	16ff#yJ
=79	=79	=79	=79	=79	=79	=79	=79
.	4dd]]	8gL	8EL	8DL	4a	4ee	8ggL
.	.	8f#yJ	8E	8D	.	.	8ff#yJ
.	4cc#y	8eL	8A	8AA	4a	4ee	8eeL
.	.	16f#y	8AJ	8AAJ	.	.	16ff#y
.	.	16gJ	.	.	.	.	16ggJ
.	4dd	4d 4a	4D	4D	4a	4dd	8ff#yL
.	.	.	.	.	.	.	16gg
.	.	.	.	.	.	.	16aaJ
.	[4bb	4dd	8dL	4r	4r	8ff#yL	[4bb
.	.	.	16c#y	.	.	16ee	.
.	.	.	16BJ	.	.	16ddJ	.
=80	=80	=80	=80	=80	=80	=80	=80
.	4bb	8gg#L	8eL	4r	4r	2ee	4bb]]
.	.	16ff#y	8EJ	.	.	.	.
.	.	16eeJ	.	.	.	.	.
.	2aa	8aaL	8c#yL	4AA	4a	.	2aa
.	.	8aJ	16B	.	.	.	.
.	.	.	16AJ	.	.	.	.
.	.	8ff#yL	8dL	4D	4a	4.dd	.
.	.	8eeJ	8c#yJ	.	.	.	.
.	4gg#	8ddL	8BL	4D	4d	.	4gg#T
.	.	16cc#y	16c#y	.	.	16eeL	.
.	.	16bJ	16dJ	.	.	16ff#yJ	.
!!LO:LB
=81	=81	=81	=81	=81	=81	=81	=81
.	4aa	8eeL	8c#yL	4AA	4a	4ee	4aa
.	.	16ee	16c#y	.	.	.	.
.	.	16ddJ	16BJ	.	.	.	.
.	2ff#y	8cc#yL	8AL	4r	4r	4r	4r
.	.	16b	16G#	.	.	.	.
.	.	16aJ	16F#yJ	.	.	.	.
.	.	8ddL	8BL	2r	2r	2r	2r
.	.	8dJ	8BBJ	.	.	.	.
.	[4ee	8bL	8G#yL	.	.	.	.
.	.	16a	16F#y	.	.	.	.
.	.	16g#J	16EJ	.	.	.	.
=82	=82	=82	=82	=82	=82	=82	=82
.	4ee]	8cc#yL	8AL	1r	1r	1r	1r
.	.	8cc#yJ	8G#J	.	.	.	.
.	2dd	8aL	8F#yL	.	.	.	.
.	.	16b	16G#y	.	.	.	.
.	.	16cc#yJ	16AJ	.	.	.	.
.	.	8bL	8G#yL	.	.	.	.
.	.	16a	16F#y	.	.	.	.
.	.	16g#J	16EJ	.	.	.	.
.	8cc#yL	8aL	[4A	.	.	.	.
.	16b	8eJ	.	.	.	.	.
.	16aJ	.	.	.	.	.	.
=83	=83	=83	=83	=83	=83	=83	=83
.	8ddL	4f#y	4A]	1r	1r	1r	1r
.	8cc#yJ	.	.	.	.	.	.
.	8bL	4g#	4G#	.	.	.	.
.	16cc#y	.	.	.	.	.	.
.	16ddJ	.	.	.	.	.	.
.	4cc#y	4e 4a	4A	.	.	.	.
.	4r	4r	4r	.	.	.	.
=84	=84	=84	=84	=84	=84	=84	=84
.	4ee	4cc#y	1r	1r	1r	1r	1r
.	4aa	8r	.	.	.	.	.
.	.	16bL	.	.	.	.	.
.	.	16aJ	.	.	.	.	.
.	4gg#	8bL	.	.	.	.	.
.	.	8b	.	.	.	.	.
.	8r	8e	.	.	.	.	.
.	16ff#yL	8eJ	.	.	.	.	.
.	16eeJ	.	.	.	.	.	.
=85	=85	=85	=85	=85	=85	=85	=85
*	*	*	*^	*	*	*	*
.	8ff#yL	4a	2r	2r	2r	2r	2r	2r
.	8ff#y	.	.	.	.	.	.	.
.	8bb	4g#	.	.	.	.	.	.
.	8bbJ	.	.	.	.	.	.	.
.	8eeL	8cc#yL	4A	4AA	4AA	4a	4ee	4aa
.	16dd	16b	.	.	.	.	.	.
.	16eeJ	16cc#yJ	.	.	.	.	.	.
.	8ff#yL	8ddL	4A	4D	4AA	4a	4ff#y	4aa
.	16ee	16cc#y	.	.	.	.	.	.
.	16ddJ	16bJ	.	.	.	.	.	.
*	*	*	*v	*v	*	*	*	*
=86	=86	=86	=86	=86	=86	=86	=86
.	8eeL	4a	4C#y	4AA	4a	4ee	4aa
.	8aJ	.	.	.	.	.	.
.	2aa	8eeL	8r	8r	8r	8r	8r
.	.	16dd	16BBL	8AA	8a	8ee	8aa
.	.	16cc#yJ	16AAJ	.	.	.	.
.	.	8ddL	8BBL	8DL	8dL	8ddL	8aaL
.	.	8cc#yJ	8BB	8D	8d	8dd	8aa
.	[4gg	8bL	8E	8D	8d	8ee	8gg
.	.	16cc#y	8EJ	8DJ	8dJ	8eeJ	8ggJ
.	.	16ddJ	.	.	.	.	.
=87	=87	=87	=87	=87	=87	=87	=87
.	8ggL]	4cc#y	4AA	4AA	4a	4ee	4gg
.	16ff#y	.	.	.	.	.	.
.	16eeJ	.	.	.	.	.	.
.	8aaL	4r	2F#y	4r	4r	8ff#yL	8aaL
.	16gg	.	.	.	.	16ee	16gg
.	16ff#yJ	.	.	.	.	16ff#yJ	16aaJ
.	8bbL	8ddL	.	2r	2r	2gg	2bb
.	8bbJ	16cc#y	.	.	.	.	.
.	.	16bJ	.	.	.	.	.
.	8ggL	8eeL	[4E	.	.	.	.
.	16ff#y	16dd	.	.	.	.	.
.	16eeJ	16cc#yJ	.	.	.	.	.
=88	=88	=88	=88	=88	=88	=88	=88
.	8aaL	8cc#yL	4E]	1r	1r	2ff#y	2aa
.	8aaJ	16b	.	.	.	.	.
.	.	16aJ	.	.	.	.	.
.	8ff#yL	8ddL	2D	.	.	.	.
.	16ee	8dJ	.	.	.	.	.
.	16ddJ	.	.	.	.	.	.
.	8ggL	4b	.	.	.	2ee	2gg
.	8ff#yJ	.	.	.	.	.	.
.	8eeL	4cc#y	4C#y	.	.	.	.
.	16ff#y	.	.	.	.	.	.
.	16ggJ	.	.	.	.	.	.
=89	=89	=89	=89	=89	=89	=89	=89
.	8ff#yL	4a	4D	4r	4r	8ddL	8ff#yL
.	16gg	.	.	.	.	8r	16gg
.	16aaJ	.	.	.	.	.	16aaJ
.	16bbL	8ff#yL	2d	8D	8d	8ff#yJ	8bb
.	16aa	.	.	.	.	.	.
.	16gg	16ee	.	8r	8r	8r	8r
.	16ff#yJ	16ddJ	.	.	.	.	.
.	8eeL	4g	.	8DL	8dL	8ggL	8bb
.	16ff#y	.	.	8r	8r	8r	8r
.	16ggJ	.	.	.	.	.	.
.	16aaL	8eeL	[4c#y	8AAJ	8aJ	8eeJ	8aa
.	16gg	.	.	.	.	.	.
.	16ff#y	16dd	.	8r	8r	8r	8r
.	16eeJ	16cc#yJ	.	.	.	.	.
!!LO:LB
=90	=90	=90	=90	=90	=90	=90	=90
.	8ddL	4f#y	4c#y]	8AAL	8aL	8ff#yL	8aaL
.	16ee	.	.	8r	8r	8r	8r
.	16ff#yJ	.	.	.	.	.	.
.	16ggL	8ddL	2B	8DJ	8dJ	8ddJ	8ggJ
.	16ff#y	.	.	.	.	.	.
.	16ee	16cc#y	.	8r	8r	8r	8r
.	16ddJ	16bJ	.	.	.	.	.
.	8cc#yL	4e	.	2r	2r	8eeL	8ggL
.	16dd	.	.	.	.	8r	8r
.	16eeJ	.	.	.	.	.	.
.	16ff#yL	8cc#yL	[4A	.	.	8ff#yJ	8ff#yJ
.	16ee	.	.	.	.	.	.
.	16dd	16b	.	.	.	8r	8r
.	16cc#yJ	16aJ	.	.	.	.	.
=91	=91	=91	=91	=91	=91	=91	=91
.	8bL	8ddL	4A]	2r	2r	8ddL	8ff#yL
.	16cc#y	8cc#yJ	.	.	.	8r	8r
.	16ddJ	.	.	.	.	.	.
.	16eeL	8bL	4G#	.	.	8ddJ	8eeJ
.	16dd	.	.	.	.	.	.
.	16cc#y	16cc#y	.	.	.	8r	8r
.	16bJ	16ddJ	.	.	.	.	.
.	4a	8cc#yL	2A	4AA	4a	4ee	4aa
.	.	16dd	.	.	.	.	.
.	.	16eeJ	.	.	.	.	.
.	[4aa	16ff#yL	.	4r	4r	4r	4r
.	.	16ee	.	.	.	.	.
.	.	16dd	.	.	.	.	.
.	.	16cc#yJ	.	.	.	.	.
=92	=92	=92	=92	=92	=92	=92	=92
*	*	*	*^	*	*	*	*
.	4aa]	8bL	4r	[1AA	1r	1r	1r	1r
.	.	16cc#y	.	.	.	.	.	.
.	.	16ddJ	.	.	.	.	.	.
.	2gg	16eeL	4A	.	.	.	.	.
.	.	16dd	.	.	.	.	.	.
.	.	16cc#y	.	.	.	.	.	.
.	.	16bJ	.	.	.	.	.	.
.	.	8aL	4e	.	.	.	.	.
.	.	16b	.	.	.	.	.	.
.	.	16cc#yJ	.	.	.	.	.	.
.	[4ff#y	16ddL	[4d	.	.	.	.	.
.	.	16cc#y	.	.	.	.	.	.
.	.	16b	.	.	.	.	.	.
.	.	16aJ	.	.	.	.	.	.
=93	=93	=93	=93	=93	=93	=93	=93	=93
.	4ff#y]	8gL	4d]	1AA_	1r	1r	1r	1r
.	.	16a	.	.	.	.	.	.
.	.	16bJ	.	.	.	.	.	.
.	2ee	16cc#yL	2c#y	.	.	.	.	.
.	.	16b	.	.	.	.	.	.
.	.	16a	.	.	.	.	.	.
.	.	16gJ	.	.	.	.	.	.
.	.	8f#yL	.	.	.	.	.	.
.	.	16g	.	.	.	.	.	.
.	.	16aJ	.	.	.	.	.	.
.	[4dd	16bL	4B	.	.	.	.	.
.	.	16a	.	.	.	.	.	.
.	.	16g	.	.	.	.	.	.
.	.	16f#yJ	.	.	.	.	.	.
*	*	*	*v	*v	*	*	*	*
=94	=94	=94	=94	=94	=94	=94	=94
.	4dd]	8eL	2AA]	2r	2r	2r	2r
.	.	16f#y	.	.	.	.	.
.	.	16gJ	.	.	.	.	.
.	4cc#y	16aL	.	.	.	.	.
.	.	16g	.	.	.	.	.
.	.	16f#y	.	.	.	.	.
.	.	16eJ	.	.	.	.	.
.	4dd	4f#y 4a	4D	4D	4dd	4ff#y	4aa
.	4b	4d 4g	4G	4D	4d	4dd	4bb
=95	=95	=95	=95	=95	=95	=95	=95
.	4a	4d	4F#y	4D	4d	4dd	4aa
.	8r	8r	8r	8r	8r	8r	8r
.	8dd	16gL	16EL	8D	8a	16eeL	16ggL
.	.	16f#yJ	16DJ	.	.	16ff#yJ	16ff#yJ
.	4dd	4g	8EL	8DL	8aL	4ee	8ggL
.	.	.	8E	8D	8a	.	8ff#yJ
.	4a 4cc#y	4e	8A	8AA	8a	4ee	8eeL
.	.	.	8AJ	8AAJ	8aJ	.	16ff#y
.	.	.	.	.	.	.	16ggJ
*	*	*v	*v	*	*	*	*
=96	=96	=96	=96	=96	=96	=96
.	8f#yL 8a 8dd	8DL	8D	8a	8ddL	8ff#yL
.	8g 8b 8dd	8G	8r	8r	16dd	16gg
.	.	.	.	.	16ddJ	16aaJ
.	8f#y 8a 8dd	8A	8.AAL	8aL	8ddL	8.eeLT
.	8eJ 8a 8cc#y	8AAJ	.	16a	8aJ	.
.	.	.	16AAJ	16aJ	.	16ddJ
.	4f#y 4a 4dd	8DL	4D	4f#y	4a	4dd
.	.	16E	.	.	.	.
.	.	16F#yJ	.	.	.	.
.	4r	16GL	4r	4r	4r	4r
.	.	16F#y	.	.	.	.
.	.	16E	.	.	.	.
.	.	16DJ	.	.	.	.
=97	=97	=97	=97	=97	=97	=97
.	4e 4a 4ee	8C#yL	4AA	4a	4ee	4aa
.	.	16D	.	.	.	.
.	.	16EJ	.	.	.	.
.	4r	16F#yL	4r	4r	4r	4r
.	.	16E	.	.	.	.
.	.	16D	.	.	.	.
.	.	16C#yJ	.	.	.	.
.	4g# 4b 4dd	8BBL	4D	4d	4dd	4gg#
.	.	16C#y	.	.	.	.
.	.	16DJ	.	.	.	.
.	4r	16EL	4r	4r	4r	4r
.	.	16D	.	.	.	.
.	.	16C#y	.	.	.	.
.	.	16BBJ	.	.	.	.
!!LO:LB
=98	=98	=98	=98	=98	=98	=98
.	4e 4a 4cc#y	8AAL	4AA	4a	4ee	4aa
.	.	16BB	.	.	.	.
.	.	16C#yJ	.	.	.	.
.	4r	16DL	4r	4r	4r	4r
.	.	16Cn	.	.	.	.
.	.	16BB	.	.	.	.
.	.	16AAJ	.	.	.	.
.	4g 4b 4dd	8GGL	2r	4dd	4gg	4bb
.	.	16AA	.	.	.	.
.	.	16BBJ	.	.	.	.
.	4r	16CL	.	4r	4r	4r
.	.	16BB	.	.	.	.
.	.	16AA	.	.	.	.
.	.	16GGJ	.	.	.	.
=99	=99	=99	=99	=99	=99	=99
.	4d 4a 4dd	8FF#yL	4D	4a	4dd	4aa
.	.	16GG	.	.	.	.
.	.	16AAJ	.	.	.	.
.	4r	16BBL	4r	4r	4r	4r
.	.	16AA	.	.	.	.
.	.	16GG	.	.	.	.
.	.	16FF#yJ	.	.	.	.
.	4e 4g 4cc#y	8EEL	2r	2r	4ee	4gg
.	.	16FF#y	.	.	.	.
.	.	16GGJ	.	.	.	.
.	4r	16AAL	.	.	4r	4r
.	.	16GG	.	.	.	.
.	.	16FF#y	.	.	.	.
.	.	16EEJ	.	.	.	.
=100	=100	=100	=100	=100	=100	=100
*	*	*^	*	*	*	*
.	4a 4dd	4f#y	4DD	4D	4dd	4ff#y	8aaL
.	.	.	.	.	.	.	16gg
.	.	.	.	.	.	.	16aaJ
.	4b 4dd	4g	4GG	4D	4d	4dd	8bbL
.	.	.	.	.	.	.	16aa
.	.	.	.	.	.	.	16ggJ
.	4a 4dd	4d	4FF#y	4D	4d	4dd	4aa
.	8r	8r	8r	8r	8r	8r	8r
.	16gL	8d	16EEL	8D	8a	16eeL	16ggL
.	16f#yJ	.	16DDJ	.	.	16ff#yJ	16ff#yJ
*	*	*v	*v	*	*	*	*
=101	=101	=101	=101	=101	=101	=101
.	4c#y 4g 4a	8EEL	8DL	8aL	8eeL	8ggL
.	.	8EE	8D	8a	8aJ	8ff#yJ
.	4e 4g 4cc#y	8AA	8AA	8a	8aL	8eeL
.	.	8AAJ	8AAJ	8aJ	16dd	16ff#y
.	.	.	.	.	16eeJ	16ggJ
.	8f#yL 8a 8dd	8DL	4D	8a	8ddL	8ff#yL
.	8g 8b 8dd	8GGJ	.	8r	8dd	16gg
.	.	.	.	.	.	16aaJ
.	8f#y 8a 8dd	4AA	8.AAL	8aL	8dd	8.eeL;
.	8eJ 8a 8cc#y	.	.	16a	8aJ	.
.	.	.	16AAJ	16aJ	.	16ddJ
=102	=102	=102	=102	=102	=102	=102
*	*	*^	*	*	*	*
.	2f#y; 2a 2dd;	2D 2A 2d	2DD;	2D;	2f#y;	2a;	2dd;
.	2r	2r	2r	2r	2r	2r	2r
==103	==103	==103	==103	==103	==103	==103	==103
!	!	!	!	!	!	!	!LO:TX:a:i:t=.
.	4.b 4.dd	4.f#y	4BB	2.r	2.r	2.r	2.r
.	.	.	4B	.	.	.	.
.	8a# 8cc#y	8f#y	.	.	.	.	.
.	8a#yL 8cc#y	4f#y	4F#y	.	.	.	.
.	8bJ 8dd	.	.	.	.	.	.
=104	=104	=104	=104	=104	=104	=104	=104
.	4.b 4.dd	4.f#y	4BB	2.r	2.r	2.r	2.r
.	.	.	4B	.	.	.	.
.	8a# 8cc#y	8f#y	.	.	.	.	.
.	8a#yL 8cc#y	4f#y	4F#y	.	.	.	.
.	8bJ 8dd	.	.	.	.	.	.
=105	=105	=105	=105	=105	=105	=105	=105
.	4b 4dd	4f#y	4BB	2.r	2.r	2.r	2.r
.	8gL 8ee	4a	4C#y	.	.	.	.
.	8f#yJ 8dd	.	.	.	.	.	.
.	8ddL	8f#yL	4D	.	.	.	.
.	8cc#yJ	8eJ	.	.	.	.	.
=106	=106	=106	=106	=106	=106	=106	=106
.	4cc#y	4e	4AA	2.r	2.r	2.r	2.r
.	8ff#yL	4cc#y	4AA#	.	.	.	.
.	8eeJ	.	.	.	.	.	.
.	8cc#yL 8ee	[4f#y	4AA#y	.	.	.	.
.	8bJ 8dd	.	.	.	.	.	.
=107	=107	=107	=107	=107	=107	=107	=107
.	8bL 8dd	8f#yL]	4BB	2.r	2.r	2.r	2.r
.	8gJ 8cc#y	8eJ	.	.	.	.	.
.	4.g 4.cc#y	4.e	4E	.	.	.	.
.	.	.	4E	.	.	.	.
.	8f#y 8a#	8c#y	.	.	.	.	.
=108	=108	=108	=108	=108	=108	=108	=108
.	8a#L	8c#yL	4F#y	2.r	2.r	2.r	2.r
.	8bJ	8dJ	.	.	.	.	.
.	8bL	8dL	4F#y	.	.	.	.
.	8a#yJ	8eJ	.	.	.	.	.
.	8a#yL	8eL	4F#y	.	.	.	.
.	8bJ	8dJ	.	.	.	.	.
!!LO:LB
=109	=109	=109	=109	=109	=109	=109	=109
.	8bL	8dL	4F#y	2.r	2.r	2.r	2.r
.	8a#J	8eJ	.	.	.	.	.
.	8bL	8dL	4F#y	.	.	.	.
.	8bJ 8dd	8f#yJ	.	.	.	.	.
.	8bL 8dd	4f#y	4F#y	.	.	.	.
.	8a#yJ 8cc#y	.	.	.	.	.	.
=110	=110	=110	=110	=110	=110	=110	=110
.	8cc#yL	8a#L	4.F#y	2.r	2.r	2.r	2.r
.	8bJ	8bJ	.	.	.	.	.
.	8a#L	8a#yL	.	.	.	.	.
.	8eeJ	8bJ	8G	.	.	.	.
.	8ff#yL	8a#yL 8cc#y	8F#yL	.	.	.	.
.	8ff#yJ	8a#yJ 8cc#y	8EJ	.	.	.	.
=111	=111	=111	=111	=111	=111	=111	=111
.	8ddL	8bL	8DL	2.r	2.r	2.r	2.r
.	8eeJ	8gJ	8EJ	.	.	.	.
.	4dd	4f#y 4b	4F#y	.	.	.	.
.	4cc#y	4f#y 4a#	4FF#y	.	.	.	.
=112	=112	=112	=112	=112	=112	=112	=112
.	4r	8b	4BB	2.r	2.r	2.r	2.r
.	.	4dd	.	.	.	.	.
.	4ff#y	.	4B	.	.	.	.
.	.	8cc#y	.	.	.	.	.
.	4ff#y	8a#L	4F#y	.	.	.	.
.	.	8bJ	.	.	.	.	.
=113	=113	=113	=113	=113	=113	=113	=113
.	[2.ff#y	8f#yL	4BB	2.r	2.r	2.r	2.r
.	.	8bJ	.	.	.	.	.
.	.	8ddL	4B	.	.	.	.
.	.	8cc#yJ	.	.	.	.	.
.	.	8a#L	4F#y	.	.	.	.
.	.	8bJ	.	.	.	.	.
=114	=114	=114	=114	=114	=114	=114	=114
.	4ff#y]	4dd	4BB	2.r	2.r	2.r	2.r
.	4ee	[2a	4C#y	.	.	.	.
.	[4gg	.	4AA	.	.	.	.
=115	=115	=115	=115	=115	=115	=115	=115
.	4gg]	4.a]	4D	2.r	2.r	2.r	2.r
.	8ff#yL	.	4D	.	.	.	.
.	16ee	8f#y	.	.	.	.	.
.	16ddJ	.	.	.	.	.	.
.	8cc#yL	4g	4E	.	.	.	.
.	16dd	.	.	.	.	.	.
.	16eeJ	.	.	.	.	.	.
=116	=116	=116	=116	=116	=116	=116	=116
.	2.a#	4f#y	4F#y	2.r	2.r	2.r	2.r
.	.	4c#y	4F#y	.	.	.	.
.	.	8eL	4F#y	.	.	.	.
.	.	[8d#J	.	.	.	.	.
=117	=117	=117	=117	=117	=117	=117	=117
.	4r	8d#yL]	4BB	2.r	2.r	2.r	2.r
.	.	8f#yJ	.	.	.	.	.
.	4.dd#	[2b	4A	.	.	.	.
.	.	.	4A	.	.	.	.
.	16ff#yL	.	.	.	.	.	.
.	16eeJ	.	.	.	.	.	.
=118	=118	=118	=118	=118	=118	=118	=118
.	4ee	8bL]]	4A	2.r	2.r	2.r	2.r
.	.	8eJ	.	.	.	.	.
.	4b	2e	4G#	.	.	.	.
.	[4dd	.	4G#y	.	.	.	.
=119	=119	=119	=119	=119	=119	=119	=119
.	4dd]	8.aL	4A	2.r	2.r	2.r	2.r
.	.	16bJ	.	.	.	.	.
.	4.cc#y	8eL	4AA	.	.	.	.
.	.	8f#yJ	.	.	.	.	.
.	.	4g	4AA	.	.	.	.
.	16eeL	.	.	.	.	.	.
.	16ddJ	.	.	.	.	.	.
=120	=120	=120	=120	=120	=120	=120	=120
.	4dd	4.f#y	4D	2.r	2.r	2.r	2.r
.	4a	.	4F#y	.	.	.	.
.	.	8d	.	.	.	.	.
.	[4aa	8dL	4F#y	.	.	.	.
.	.	8ccnJ	.	.	.	.	.
=121	=121	=121	=121	=121	=121	=121	=121
.	8aaL]	4b	4G	2.r	2.r	2.r	2.r
.	16gg	.	.	.	.	.	.
.	16ff#yJ	.	.	.	.	.	.
.	8ggL	4dd	4G	.	.	.	.
.	16aa	.	.	.	.	.	.
.	16bbJ	.	.	.	.	.	.
.	8eeL	4b	4G	.	.	.	.
.	16ff#y	.	.	.	.	.	.
.	16ggJ	.	.	.	.	.	.
=122	=122	=122	=122	=122	=122	=122	=122
.	16cc#yL	8a	4A	2.r	2.r	2.r	2.r
.	16b	.	.	.	.	.	.
.	16a	4e	.	.	.	.	.
.	16cc#yJ	.	.	.	.	.	.
.	16ddL	.	4AA	.	.	.	.
.	16cc#y	.	.	.	.	.	.
.	16dd	8a	.	.	.	.	.
.	16ggJ	.	.	.	.	.	.
.	8.eeLT	8ddL	4AA	.	.	.	.
.	.	8cc#yJ	.	.	.	.	.
.	16ddJ	.	.	.	.	.	.
=123	=123	=123	=123	=123	=123	=123	=123
.	4.ee#	[4b	4GG#	2.r	2.r	2.r	2.r
.	.	8bL]	4GG#y	.	.	.	.
.	16dd#L	8g#J	.	.	.	.	.
.	16cc#yJ	.	.	.	.	.	.
.	16cc#yL	8dL	4GG#y	.	.	.	.
.	16b	.	.	.	.	.	.
.	16b	8e#J	.	.	.	.	.
.	16aJ	.	.	.	.	.	.
!!LO:LB
=124	=124	=124	=124	=124	=124	=124	=124
.	16aL	8f#y	4FF#y	2.r	2.r	2.r	2.r
.	16g#	.	.	.	.	.	.
.	16g#y	4c#y	.	.	.	.	.
.	16f#yJ	.	.	.	.	.	.
.	16cc#yL	.	4AA	.	.	.	.
.	16b	.	.	.	.	.	.
.	16b	4f#y	.	.	.	.	.
.	16aJ	.	.	.	.	.	.
.	[4ff#y	.	4AA	.	.	.	.
.	.	8cc#y	.	.	.	.	.
=125	=125	=125	=125	=125	=125	=125	=125
.	8ff#yL]	8f#yL	4BB	2.r	2.r	2.r	2.r
.	8bJ	8d#J	.	.	.	.	.
.	8ggL	8eL	4BB	.	.	.	.
.	16ff#y	8f#yJ	.	.	.	.	.
.	16eeJ	.	.	.	.	.	.
.	8.dd#LT	[4b	4AA	.	.	.	.
.	16eeJ	.	.	.	.	.	.
=126	=126	=126	=126	=126	=126	=126	=126
.	4.dd	4b]	4GG#	2.r	2.r	2.r	2.r
.	.	4b	4GG#y	.	.	.	.
.	16ff#yL	.	.	.	.	.	.
.	16eeJ	.	.	.	.	.	.
.	16eeL	4b	4GG#y	.	.	.	.
.	16dd	.	.	.	.	.	.
.	16dd	.	.	.	.	.	.
.	16cc#yJ	.	.	.	.	.	.
=127	=127	=127	=127	=127	=127	=127	=127
.	16cc#yL	8aL	4AA	2.r	2.r	2.r	2.r
.	16b	.	.	.	.	.	.
.	16b	8eJ	.	.	.	.	.
.	16aJ	.	.	.	.	.	.
.	8r	4e 4f#y	4AA#	.	.	.	.
.	16ggL	.	.	.	.	.	.
.	16ff#yJ	.	.	.	.	.	.
.	16ff#yL	4e 4f#y	4AA#y	.	.	.	.
.	16ee	.	.	.	.	.	.
.	16ee	.	.	.	.	.	.
.	16ddJ	.	.	.	.	.	.
=128	=128	=128	=128	=128	=128	=128	=128
.	16ddL	4.d 4.f#y	4BB	2.r	2.r	2.r	2.r
.	16cc#y	.	.	.	.	.	.
.	16cc#y	.	.	.	.	.	.
.	16bJ	.	.	.	.	.	.
.	4ff#y	.	4B	.	.	.	.
.	.	8a#	.	.	.	.	.
.	4ff#y	8cc#yL	4F#y	.	.	.	.
.	.	[8ddJ	.	.	.	.	.
=129	=129	=129	=129	=129	=129	=129	=129
.	[2.ff#y	8ddL]	4BB	2.r	2.r	2.r	2.r
.	.	8bJ	.	.	.	.	.
.	.	8f#yL	4B	.	.	.	.
.	.	8a#J	.	.	.	.	.
.	.	8cc#yL	4F#y	.	.	.	.
.	.	[8ddJ	.	.	.	.	.
=130	=130	=130	=130	=130	=130	=130	=130
.	4ff#y]	8dd]	4BB	2.r	2.r	2.r	2.r
.	.	4a	.	.	.	.	.
.	4ee	.	4C#y	.	.	.	.
.	.	4cc#y	.	.	.	.	.
.	[4gg	.	4AA	.	.	.	.
.	.	[8dd	.	.	.	.	.
=131	=131	=131	=131	=131	=131	=131	=131
.	4gg]	4.dd]	4D	2.r	2.r	2.r	2.r
.	8ff#yL	.	4D	.	.	.	.
.	16ee	[8g	.	.	.	.	.
.	16ddJ	.	.	.	.	.	.
.	8cc#yL	8gL]	4E	.	.	.	.
.	16dd	[8f#yJ	.	.	.	.	.
.	16eeJ	.	.	.	.	.	.
=132	=132	=132	=132	=132	=132	=132	=132
.	8a#L	4f#y]	4F#y	2.r	2.r	2.r	2.r
.	16cc#y	.	.	.	.	.	.
.	16bJ	.	.	.	.	.	.
.	4.b	4d	4G	.	.	.	.
.	.	8d#L	4F#y	.	.	.	.
.	8dd#	8f#yJ	.	.	.	.	.
=133	=133	=133	=133	=133	=133	=133	=133
.	16eeL	4g	4E	2.r	2.r	2.r	2.r
.	16gg	.	.	.	.	.	.
.	16ff#y	.	.	.	.	.	.
.	16eeJ	.	.	.	.	.	.
.	4dd	4b	4F#y	.	.	.	.
.	8.cc#yLT	4a#	4FF#y	.	.	.	.
.	16bJ	.	.	.	.	.	.
=134	=134	=134	=134	=134	=134	=134	=134
.	4b	4d 4f#y	4BB	2.r	2.r	2.r	2.r
.	4.dd	4r	4r	.	.	.	.
.	.	4r	4r	.	.	.	.
.	8cc#y	.	.	.	.	.	.
=135	=135	=135	=135	=135	=135	=135	=135
.	4cc#y	4f#y 4a	4AA	2.r	2.r	2.r	2.r
.	4cc#y	4r	4r	.	.	.	.
.	[4ff#y	4r	4r	.	.	.	.
=136	=136	=136	=136	=136	=136	=136	=136
.	4ff#y]	2.g 2.b	2.GG	2.r	2.r	2.r	2.r
.	4.eeT	.	.	.	.	.	.
.	8ff#y	.	.	.	.	.	.
=137	=137	=137	=137	=137	=137	=137	=137
.	2.ff#y;	2.c#y 2.f#y 2.a#	2.FF#y;	2.r	2.r	2.r	2.r
==138	==138	==138	==138	==138	==138	==138	==138
!	!	!	!	!	!	!	!LO:TX:a:iB:t=4 - Vivace
.	8dL	8dL	8DL	2.r	2.r	2.r	8r
.	8dd	8dd	8d	.	.	.	8ddL
.	8cc#yJ	8cc#yJ	8c#yJ	.	.	.	8ddJ
.	4.dd	8ddL	8BL	.	.	.	8ddL
.	.	8cc#y	8A	.	.	.	8dd
.	.	8bJ	8GJ	.	.	.	8ddJ
!!LO:LB
=139	=139	=139	=139	=139	=139	=139	=139
.	[4.dd	8aL	8F#yL	2.r	2.r	2.r	8ddL
.	.	8g	8E	.	.	.	8dd
.	.	8f#yJ	8DJ	.	.	.	8ddJ
.	8ddL]	8b	8GL	.	.	.	8eeL
.	16cc#y	4a	8A	.	.	.	16ee
.	16dd	.	.	.	.	.	16ff#y
.	16ee	.	8AAJ	.	.	.	16gg
.	16cc#yJ	.	.	.	.	.	16eeJ
=140	=140	=140	=140	=140	=140	=140	=140
.	8ddL	4f#y	4D	2.r	2.r	2.r	8ff#yL
.	16b	.	.	.	.	.	8bb
.	16cc#y	.	.	.	.	.	.
.	16dd	8f#y	8d	.	.	.	8bbJ
.	16bJ	.	.	.	.	.	.
.	4a	4e	8c#yL	.	.	.	8eeL
.	.	.	8F#y	.	.	.	8aaJ
.	8cc#y	8e	8AJ	.	.	.	8r
=141	=141	=141	=141	=141	=141	=141	=141
.	4dd	4g	8BL	2.r	2.r	2.r	4dd
.	.	.	8G	.	.	.	.
.	8dd	8g	8EJ	.	.	.	8gg
.	4dd	4f#y	8DL	.	.	.	8ff#y
.	.	.	8A	.	.	.	4ee
.	8cc#y	8e	8AAJ	.	.	.	.
=142	=142	=142	=142	=142	=142	=142	=142
.	4dd	4f#y	4D	2.r	2.r	8r	8ddL
.	.	.	.	.	.	8aL	8ff#y
.	8g	8g	8E	.	.	8aJ	8eeJ
.	8aL	8aL	8F#yL	.	.	8aL	8ddL
.	8a	8g	8E	.	.	8a	8ee
.	8aJ	8f#yJ	8DJ	.	.	8aJ	8ff#yJ
=143	=143	=143	=143	=143	=143	=143	=143
.	8aL	8eL	8C#yL	2.r	2.r	8aL	8eeL
.	8a	8a	8F#y	.	.	8a	8aJ
.	8aJ	8gJ	8EJ	.	.	8aJ	4aa
.	8ddL	8f#y	8DL	.	.	8ff#y	.
.	8b	4b	8E	.	.	4eeT	4gg#T
.	8gg#J	.	8EEJ	.	.	.	.
=144	=144	=144	=144	=144	=144	=144	=144
.	16aaL	8cc#yL	8AAL	2.r	2.r	8ff#yL	8aaL
.	16gg#	.	.	.	.	.	.
.	16aa	8ff#y	8D	.	.	8ff#yJ	8r
.	16bb	.	.	.	.	.	.
.	16aa	8ff#yJ	8D#J	.	.	8r	8aaJ
.	16bbJ	.	.	.	.	.	.
.	16gg#yL	8bL	8EL	.	.	8eeL	8gg#L
.	16ff#y	.	.	.	.	.	.
.	16gg#y	8eeJ	8EE	.	.	8eeJ	8r
.	16aa	.	.	.	.	.	.
.	16gg#y	8r	8C#yJ	.	.	8r	8gg#yJ
.	16aaJ	.	.	.	.	.	.
=145	=145	=145	=145	=145	=145	=145	=145
.	16ff#yL	4a	8DL	2.r	2.r	8aL	8ff#yL
.	16ee	.	.	.	.	.	.
.	16ff#y	.	8DD	.	.	8ddJ	8r
.	16gg#	.	.	.	.	.	.
.	16ff#y	8dd	8DJ	.	.	8r	8ff#yJ
.	16gg#yJ	.	.	.	.	.	.
.	16eeL	8cc#yL	8A	.	.	8ee	8ee
.	16ff#y	.	.	.	.	.	.
.	16dd	8bJ	4G#	.	.	4dd	4ee
.	16ee	.	.	.	.	.	.
.	16cc#y	8r	.	.	.	.	.
.	16ddJ	.	.	.	.	.	.
=146	=146	=146	=146	=146	=146	=146	=146
.	[4.aa	16cc#yL	4A 4e	2.r	2.r	8a	8ee
.	.	16b	.	.	.	.	.
.	.	16a	.	.	.	4r	4r
.	.	16b	.	.	.	.	.
.	.	16cc#y	8r	.	.	.	.
.	.	16ddJ	.	.	.	.	.
.	16aaL]	8eeL	4.r	.	.	4.r	4.r
.	16bb	.	.	.	.	.	.
.	16gg	8b	.	.	.	.	.
.	16aa	.	.	.	.	.	.
.	16ff#y	8cc#yJ	.	.	.	.	.
.	16ggJ	.	.	.	.	.	.
=147	=147	=147	=147	=147	=147	=147	=147
.	4ff#y	8ddL	8r	8r	8r	8r	8r
.	.	8a	8DL	8DL	8ddL	8ff#yL	16aaL
.	.	.	.	.	.	.	16ff#y
.	8ee	8gJ	8DJ	8DJ	8aJ	8eeJ	16gg
.	.	.	.	.	.	.	16eeJ
.	8ff#yL	8aL	8DL	8DL	8aL	8ddL	16ff#yL
.	.	.	.	.	.	.	16gg
.	8ff#y	8a	8D	8D	8dd	8ff#y	16aa
.	.	.	.	.	.	.	16ff#y
.	8eeJ	8gJ	8DJ	8DJ	8aJ	8eeJ	16gg
.	.	.	.	.	.	.	16eeJ
=148	=148	=148	=148	=148	=148	=148	=148
.	4dd	4f#y 4a	8DL	8DL	8aL	4dd	16ff#yL
.	.	.	.	.	.	.	16ee
.	.	.	8D	8D	8d	.	16ff#y
.	.	.	.	.	.	.	16gg
.	8ff#y	8a 8dd	8DJ	8DJ	8f#yJ	8dd	16aa
.	.	.	.	.	.	.	16ff#yJ
.	8eeL	8g 8dd	8EL	8r	8r	8ddL	16ggL
.	.	.	.	.	.	.	16aa
.	16g	4r	16E	8AAL	8aL	8ee	16gg
.	16a	.	16F#y	.	.	.	16ff#y
.	16b	.	16G	8AAJ	8aJ	8eeJ	16ee
.	16gJ	.	16EJ	.	.	.	16ggJ
*	*	*v	*v	*	*	*	*
=149	=149	=149	=149	=149	=149	=149
.	16ddL	8F#yL	8DL	8aL	8ddL	8aaL
.	16cc#y	.	.	.	.	.
.	16dd	8B	8DJ	8dJ	8ddJ	8ff#yJ
.	16ee	.	.	.	.	.
.	16dd	8BJ	8r	8r	8r	8r
.	16eeJ	.	.	.	.	.
.	16cc#yL	8EL	4r	4r	8eeL	8ggL
.	16b	.	.	.	.	.
.	16cc#y	8AJ	.	.	8r	8r
.	16dd	.	.	.	.	.
.	16cc#y	8r	8AA	8a	8eeJ	8eeJ
.	16ddJ	.	.	.	.	.
!!LO:LB
=150	=150	=150	=150	=150	=150	=150
*	*	*^	*	*	*	*
.	8ff#yL	16bL	4D	8DL	8aL	8ddL	8ff#yL
.	.	16a	.	.	.	.	.
.	8ddJ	16b	.	8DJ	8f#yJ	8aJ	8ddJ
.	.	16cc#y	.	.	.	.	.
.	8r	16b	8G	8r	8r	8r	8r
.	.	16cc#yJ	.	.	.	.	.
.	8r	16aL	8F#y	8D	8a	8a	16ddL
.	.	16b	.	.	.	.	16ee
.	8.cc#yLT	16g	4E	4AA	4a	4a	(>8.eeT
.	.	16a	.	.	.	.	.
.	.	16f#y	.	.	.	.	.
.	32b	16gJ	.	.	.	.	32dd
.	32cc#yJ	.	.	.	.	.	32eeJ)
=151	=151	=151	=151	=151	=151	=151	=151
.	16ddL	4.dd	8DL	8D	8d	8a	8ff#y
.	16ff#y	.	.	.	.	.	.
.	16aa	.	8d	4r	4r	4r	4r
.	16ff#y	.	.	.	.	.	.
.	16aa	.	8dJ	.	.	.	.
.	16ff#yJ	.	.	.	.	.	.
.	16eeL	4ee	8c#yL	4.r	4.r	4.r	4.r
.	16gg#	.	.	.	.	.	.
.	16aa	.	8C#y	.	.	.	.
.	16ee	.	.	.	.	.	.
.	16aa	8ee	8C#yJ	.	.	.	.
.	16eeJ	.	.	.	.	.	.
=152	=152	=152	=152	=152	=152	=152	=152
.	16ddL	8aL	8BBL	2.r	2.r	2.r	2.r
.	16ff#y	.	.	.	.	.	.
.	16gg	8g	8B	.	.	.	.
.	16dd	.	.	.	.	.	.
.	16gg	8gJ	8BJ	.	.	.	.
.	16ddJ	.	.	.	.	.	.
.	16cc#yL	8gL	8AL	.	.	.	.
.	16ee	.	.	.	.	.	.
.	16ff#y	8f#y	8AA	.	.	.	.
.	16cc#y	.	.	.	.	.	.
.	16ff#y	8f#yJ	8AAJ	.	.	.	.
.	16cc#yJ	.	.	.	.	.	.
=153	=153	=153	=153	=153	=153	=153	=153
.	16bL	8f#yL	8GGL	2.r	2.r	2.r	2.r
.	16dd	.	.	.	.	.	.
.	16ee	8e	8G	.	.	.	.
.	16b	.	.	.	.	.	.
.	16ee	8eJ	8GJ	.	.	.	.
.	16bJ	.	.	.	.	.	.
.	8aL	8e	16F#yL	.	.	.	.
.	.	.	16G	.	.	.	.
.	16f#y	4r	16A	.	.	.	.
.	16a	.	16F#y	.	.	.	.
.	16b	.	16G	.	.	.	.
.	16gJ	.	16EJ	.	.	.	.
=154	=154	=154	=154	=154	=154	=154	=154
.	8ddL	16aL	16F#yL	2.r	2.r	2.r	2.r
.	.	16g	16G	.	.	.	.
.	8dd	16f#y	16A	.	.	.	.
.	.	16a	16F#y	.	.	.	.
.	8ddJ	16b	16G	.	.	.	.
.	.	16gJ	16EJ	.	.	.	.
.	8ddL	16aL	16F#yL	.	.	.	.
.	.	16b	16G	.	.	.	.
.	8dd	16a	16F#y	.	.	.	.
.	.	16g	16E	.	.	.	.
.	8ddJ	16f#y	[8DJ	.	.	.	.
.	.	16aJ	.	.	.	.	.
=155	=155	=155	=155	=155	=155	=155	=155
.	8eeL	8gL	8D]	2.r	2.r	2.r	2.r
.	16ee	8a	4C#y	.	.	.	.
.	16ff#y	.	.	.	.	.	.
.	16gg	8aJ	.	.	.	.	.
.	16eeJ	.	.	.	.	.	.
.	8ff#yL	8aL	8D	.	.	.	.
.	16ee	8a	4r	.	.	.	.
.	16cc#y	.	.	.	.	.	.
.	16dd	8aJ	.	.	.	.	.
.	16bJ	.	.	.	.	.	.
=156	=156	=156	=156	=156	=156	=156	=156
.	16cc#yL	8aL	2.r	2.r	2.r	2.r	2.r
.	16dd	.	.	.	.	.	.
.	16ee	8a	.	.	.	.	.
.	16cc#y	.	.	.	.	.	.
.	16dd	8aJ	.	.	.	.	.
.	16bJ	.	.	.	.	.	.
.	8cc#yL	8aL	.	.	.	.	.
.	8ee	16a	.	.	.	.	.
.	.	16b	.	.	.	.	.
.	[8aaJ	16cc#y	.	.	.	.	.
.	.	16aJ	.	.	.	.	.
=157	=157	=157	=157	=157	=157	=157	=157
.	8aa]	8bL	4.r	2.r	2.r	2.r	2.r
.	4gg#	16b	.	.	.	.	.
.	.	16cc#y	.	.	.	.	.
.	.	16dd	.	.	.	.	.
.	.	16bJ	.	.	.	.	.
.	4aa	16cc#yL	8r	.	.	.	.
.	.	16dd	.	.	.	.	.
.	.	16ee	8AL	.	.	.	.
.	.	16cc#y	.	.	.	.	.
.	8r	16dd	8AJ	.	.	.	.
.	.	16bJ	.	.	.	.	.
=158	=158	=158	=158	=158	=158	=158	=158
.	8r	16cc#yL	16AL	2.r	2.r	2.r	2.r
.	.	16dd	16B	.	.	.	.
.	8aaL	16ee	16c#y	.	.	.	.
.	.	16cc#y	16A	.	.	.	.
.	8aaJ	16dd	16B	.	.	.	.
.	.	16bJ	16G#J	.	.	.	.
.	4.aa	16cc#yL	16AL	.	.	.	.
.	.	16dd	16G#y	.	.	.	.
.	.	16cc#y	16A	.	.	.	.
.	.	16b	16B	.	.	.	.
.	.	8aJ	16c#y	.	.	.	.
.	.	.	16AJ	.	.	.	.
=159	=159	=159	=159	=159	=159	=159	=159
.	8aa	16ddL	8BL	2.r	2.r	2.r	2.r
.	.	16ee	.	.	.	.	.
.	4gg#	16dd	16B	.	.	.	.
.	.	16cc#y	16c#y	.	.	.	.
.	.	16b	16d	.	.	.	.
.	.	16ddJ	16BJ	.	.	.	.
.	8aa	16eeL	8c#yL	.	.	.	.
.	.	16dd	.	.	.	.	.
.	4r	16ee	8F#y	.	.	.	.
.	.	16ff#y	.	.	.	.	.
.	.	16ee	8F#yJ	.	.	.	.
.	.	16ff#yJ	.	.	.	.	.
*	*	*v	*v	*	*	*	*
!!LO:LB
=160	=160	=160	=160	=160	=160	=160
.	16ddL	8BBL	2.r	2.r	2.r	2.r
.	16cc#y	.	.	.	.	.
.	16dd	8EJ	.	.	.	.
.	16ee	.	.	.	.	.
.	16dd	8r	.	.	.	.
.	16eeJ	.	.	.	.	.
.	16cc#yL	4AA	.	.	.	.
.	16dd	.	.	.	.	.
.	16cc#y	.	.	.	.	.
.	16b	.	.	.	.	.
.	[8aJ	8D	.	.	.	.
=161	=161	=161	=161	=161	=161	=161
*	*	*^	*	*	*	*
.	8eeL	8a]	8C#y	2.r	2.r	2.r	2.r
.	16ee	4g#	4BB	.	.	.	.
.	16dd	.	.	.	.	.	.
.	16cc#y	.	.	.	.	.	.
.	16ddJ	.	.	.	.	.	.
.	16cc#yL	[4.a	16AL	.	.	.	.
.	16b	.	16G	.	.	.	.
.	16cc#y	.	16A	.	.	.	.
.	16dd	.	16B	.	.	.	.
.	16cc#y	.	16A	.	.	.	.
.	16ddJ	.	16BJ	.	.	.	.
=162	=162	=162	=162	=162	=162	=162	=162
.	8eeL	4a]	16GL	2.r	2.r	2.r	2.r
.	.	.	16F#y	.	.	.	.
.	8cc#y	.	16G	.	.	.	.
.	.	.	16A	.	.	.	.
.	8eeJ	8cc#y	16G	.	.	.	.
.	.	.	16AJ	.	.	.	.
.	16aaL	[4.dd	16F#yL	.	.	.	.
.	16gg	.	16E	.	.	.	.
.	16aa	.	16F#y	.	.	.	.
.	16bb	.	16G	.	.	.	.
.	16aa	.	16F#y	.	.	.	.
.	16bbJ	.	16GJ	.	.	.	.
=163	=163	=163	=163	=163	=163	=163	=163
.	16ggL	4dd]	16EL	2.r	2.r	2.r	2.r
.	16ff#y	.	16D	.	.	.	.
.	16gg	.	16E	.	.	.	.
.	16aa	.	16F#y	.	.	.	.
.	16gg	[8cc#y	16E	.	.	.	.
.	16aaJ	.	16F#yJ	.	.	.	.
.	16ff#yL	4cc#y]	16DL	.	.	.	.
.	16ee	.	16C#y	.	.	.	.
.	16ff#y	.	16D	.	.	.	.
.	16gg	.	16E	.	.	.	.
.	16ff#y	[8b	16D	.	.	.	.
.	16ggJ	.	16EJ	.	.	.	.
=164	=164	=164	=164	=164	=164	=164	=164
.	16eeL	4b]	16C#yL	2.r	2.r	2.r	2.r
.	16dd	.	16BB	.	.	.	.
.	16ee	.	16C#y	.	.	.	.
.	16ff#y	.	16D	.	.	.	.
.	16ee	8a#	16C#y	.	.	.	.
.	16ff#yJ	.	16DJ	.	.	.	.
.	16ddL	4.b	16BBL	.	.	.	.
.	16cc#y	.	16AA#	.	.	.	.
.	16dd	.	16BB	.	.	.	.
.	16ee	.	16C#y	.	.	.	.
.	16ff#y	.	16D	.	.	.	.
.	16ggJ	.	16EJ	.	.	.	.
*	*	*v	*v	*	*	*	*
=165	=165	=165	=165	=165	=165	=165
.	16a#L 16cc#y	8FF#yL	2.r	8f#y	4.r	8f#yL
.	16b 16dd	.	.	.	.	.
.	16cc#y 16ee	8F#y	.	4r	.	16f#y
.	16a#y 16cc#y	.	.	.	.	16f#y
.	16b 16dd	8F#yJ	.	.	.	16f#y
.	16gJ 16b	.	.	.	.	16f#yJ
.	16a#yL 16cc#y	8FF#yL	.	8f#y	8f#yL	8f#y
.	16b 16dd	.	.	.	.	.
.	16cc#y 16ee	8F#y	.	4r	16f#y	4r
.	16a#y 16cc#y	.	.	.	16f#y	.
.	16b 16dd	8F#yJ	.	.	16f#y	.
.	16gJ 16b	.	.	.	16f#yJ	.
=166	=166	=166	=166	=166	=166	=166
.	16a#L 16cc#y	8FF#yL	2.r	8f#y	8f#y	8f#yL
.	16b 16dd	.	.	.	.	.
.	16cc#y 16ee	8F#y	.	4r	4r	16f#y
.	16a#y 16cc#y	.	.	.	.	16f#y
.	16b 16dd	8F#yJ	.	.	.	16f#y
.	16cc#yJ 16ee	.	.	.	.	16f#yJ
.	16ddL 16ff#y	8FF#yL	.	8f#y	8f#yL	8f#y
.	16cc#y 16ee	.	.	.	.	.
.	16dd 16ff#y	8F#y	.	4r	16f#y	4r
.	16ee 16gg	.	.	.	16f#y	.
.	16dd 16ff#y	8F#yJ	.	.	16f#y	.
.	16eeJ 16gg	.	.	.	16f#yJ	.
=167	=167	=167	=167	=167	=167	=167
.	16cc#yL 16ee	8FF#yL	2.r	8f#y	8f#y	8f#yL
.	16b 16dd	.	.	.	.	.
.	16cc#y 16ee	8F#y	.	4r	4r	16f#y
.	16dd 16ff#y	.	.	.	.	16f#y
.	16cc#y 16ee	8F#yJ	.	.	.	16f#y
.	16ddJ 16ff#y	.	.	.	.	16f#yJ
.	16bL 16dd	8BBL	.	8f#y	8f#yL	8f#yL
.	16cc#yJ 16ee	.	.	.	.	.
.	4a#T 4cc#y	8F#y	.	4r	16f#y	16f#y
.	.	.	.	.	16f#y	16f#y
.	.	8FF#yJ	.	.	16f#y	16f#y
.	.	.	.	.	16f#yJ	16f#yJ
=168	=168	=168	=168	=168	=168	=168
*	*	*^	*	*	*	*
.	8f#yL 8b	8dL	4BB 4F#y 4B	2.r	8f#y	8f#y	8f#y
.	8b	8b	.	.	4r	4r	4r
.	8bJ	8aJ	8r	.	.	.	.
.	8bL	8gL	4.r	.	4.r	4.r	4.r
.	8b	8f#y	.	.	.	.	.
.	8bJ	8eJ	.	.	.	.	.
=169	=169	=169	=169	=169	=169	=169	=169
.	8bL	8dL	2.r	2.r	2.r	2.r	2.r
.	8b	8g	.	.	.	.	.
.	8bJ	8f#yJ	.	.	.	.	.
.	8cc#yL	8eL	.	.	.	.	.
.	16cc#y	8f#y	.	.	.	.	.
.	16dd	.	.	.	.	.	.
.	16ee	8f#yJ	.	.	.	.	.
.	16cc#yJ	.	.	.	.	.	.
=170	=170	=170	=170	=170	=170	=170	=170
.	8ddL	8B	2.r	2.r	2.r	2.r	2.r
.	8gg	[4b	.	.	.	.	.
.	8ggJ	.	.	.	.	.	.
.	8cc#yL	8bL]	.	.	.	.	.
.	8ff#yJ	8a	.	.	.	.	.
.	8r	8f#yJ	.	.	.	.	.
!!LO:LB
=171	=171	=171	=171	=171	=171	=171	=171
.	4b	8gL	2.r	2.r	2.r	2.r	2.r
.	.	8g#	.	.	.	.	.
.	8ee	8a#J	.	.	.	.	.
.	8dd	8bL	.	.	.	.	.
.	4cc#yT	8f#y	.	.	.	.	.
.	.	8eJ	.	.	.	.	.
*	*	*v	*v	*	*	*	*
=172	=172	=172	=172	=172	=172	=172
.	16bL	8d#L	2.r	2.r	2.r	2.r
.	16ccn	.	.	.	.	.
.	16b	8B	.	.	.	.
.	16a	.	.	.	.	.
.	16g	8D#J	.	.	.	.
.	16f#yJ	.	.	.	.	.
.	16gL	8EL	.	.	.	.
.	16a	.	.	.	.	.
.	16b	8G	.	.	.	.
.	16g	.	.	.	.	.
.	16a	8F#yJ	.	.	.	.
.	16f#yJ	.	.	.	.	.
=173	=173	=173	=173	=173	=173	=173
.	16gL	8EL	2.r	2.r	2.r	2.r
.	16a	.	.	.	.	.
.	16b	8G	.	.	.	.
.	16g	.	.	.	.	.
.	16a	8F#yJ	.	.	.	.
.	16f#yJ	.	.	.	.	.
.	8gL	8EL	.	.	.	.
.	8b	8G	.	.	.	.
.	[8eeJ	8EJ	.	.	.	.
=174	=174	=174	=174	=174	=174	=174
.	8ee]	8AL	2.r	2.r	2.r	2.r
.	4dd#	8B	.	.	.	.
.	.	8BBJ	.	.	.	.
.	16eeL	16EL	.	.	.	.
.	16ff#y	16D	.	.	.	.
.	16gg	16E	.	.	.	.
.	16ff#y	16F#y	.	.	.	.
.	16gg	16E	.	.	.	.
.	16aaJ	16F#yJ	.	.	.	.
=175	=175	=175	=175	=175	=175	=175
.	16ff#yL	16DL	2.r	2.r	2.r	2.r
.	16ee	16Cn	.	.	.	.
.	16ff#y	16D	.	.	.	.
.	16gg	16E	.	.	.	.
.	16ff#y	16D	.	.	.	.
.	16ggJ	16EJ	.	.	.	.
.	16eeL	16CL	.	.	.	.
.	16dd#	16BB	.	.	.	.
.	16ee	16C	.	.	.	.
.	16ff#y	16D	.	.	.	.
.	[8eeJ	16C	.	.	.	.
.	.	16AAJ	.	.	.	.
=176	=176	=176	=176	=176	=176	=176
.	8eeL]	8BBL	2.r	2.r	2.r	2.r
.	16dd#	8BB	.	.	.	.
.	16cc#y	.	.	.	.	.
.	16b	8BBJ	.	.	.	.
.	16aJ	.	.	.	.	.
.	16eL 16g#	8EL	.	.	.	.
.	16f#y 16a	.	.	.	.	.
.	16g#y 16b	8E	.	.	.	.
.	16a 16cc#y	.	.	.	.	.
.	16b 16ddn	8EJ	.	.	.	.
.	16g#yJ 16b	.	.	.	.	.
=177	=177	=177	=177	=177	=177	=177
.	16aL 16cc#y	8AAL	4.r	4.r	4.r	4.r
.	16b 16dd	.	.	.	.	.
.	16cc#y 16ee	8A	.	.	.	.
.	16dd 16ff#y	.	.	.	.	.
.	16ee 16gg	8AJ	.	.	.	.
.	16cc#yJ 16ee	.	.	.	.	.
.	16ddL 16ff#y	8DL	8r	8r	8r	8r
.	16a 16ee	.	.	.	.	.
.	8a 8dd	8F#y	8DL	8aL	8ddL	16aaL
.	.	.	.	.	.	16ff#y
.	8gJ 8cc#y	8EJ	8DJ	8aJ	8ddJ	16gg
.	.	.	.	.	.	16eeJ
=178	=178	=178	=178	=178	=178	=178
*	*	*^	*	*	*	*
.	8ddL	8f#yL	8DL	8DL	8aL	8ddL	16ff#yL
.	.	.	.	.	.	.	16gg
.	16a	8a	8F#y	8D	8a	8dd	16aa
.	16dd	.	.	.	.	.	16ff#y
.	16g	8gJ	8EJ	8DJ	8aJ	8ddJ	16gg
.	16cc#yJ	.	.	.	.	.	16eeJ
.	16ddL	8f#yL	8DL	8DL	8aL	8ddL	16ff#yL
.	16cc#y	.	.	.	.	.	16gg
.	16dd	8a	8F#y	8D	8d	8dd	16ff#y
.	16ee	.	.	.	.	.	16ee
.	8ff#yJ	8ddJ	8BJ	8DJ	8dJ	8ddJ	16ff#y
.	.	.	.	.	.	.	16ddJ
=179	=179	=179	=179	=179	=179	=179	=179
.	8eeL	8ddL	8GL	8DL	8dL	8eeL	16ggL
.	.	.	.	.	.	.	16aa
.	16ee	16cc#y	8A	8AA	8a	16ee	16gg
.	16ff#y	16dd	.	.	.	16ff#y	16ff#y
.	16gg	16ee	8AAJ	8AAJ	8aJ	16gg	8eeJ
.	16eeJ	16cc#yJ	.	.	.	16eeJ	.
.	16ddL	8a	8DL	8D	8a	8ff#y	8dd
.	16cc#y	.	.	.	.	.	.
.	16dd	4b	8G	4r	4r	4r	4r
.	16ee	.	.	.	.	.	.
.	16dd	.	8G#J	.	.	.	.
.	16eeJ	.	.	.	.	.	.
=180	=180	=180	=180	=180	=180	=180	=180
.	8eeL	16cc#yL	8AL	4.r	4.r	4.r	4.r
.	.	16b	.	.	.	.	.
.	8aaJ	16cc#y	8AA	.	.	.	.
.	.	16dd	.	.	.	.	.
.	8r	16cc#y	8F#yJ	.	.	.	.
.	.	16ddJ	.	.	.	.	.
.	4dd	16bL	8GL	8D	8a	8dd	8ff#y
.	.	16a	.	.	.	.	.
.	.	16b	8GG	4r	4r	4r	4r
.	.	16cc#y	.	.	.	.	.
.	8gg	16b	8GJ	.	.	.	.
.	.	16cc#yJ	.	.	.	.	.
!!LO:LB
=181	=181	=181	=181	=181	=181	=181	=181
.	8ff#y	16aL	8AL	8AA	8a	8ee	8aa
.	.	16b	.	.	.	.	.
.	4ee	16g	8AA	4r	4r	4r	4r
.	.	16a	.	.	.	.	.
.	.	16f#y	8AJ	.	.	.	.
.	.	16gJ	.	.	.	.	.
.	16ddL	8f#yL	8DL	8D	8a	8dd	8ff#y
.	16a	.	.	.	.	.	.
.	16dd	8a	8DD	4r	4r	4r	4r
.	16ff#y	.	.	.	.	.	.
.	16aa	8ddJ	8DJ	.	.	.	.
.	16ff#yJ	.	.	.	.	.	.
*	*	*v	*v	*	*	*	*
=182	=182	=182	=182	=182	=182	=182
.	8eeL	8AL	8AA	8a	8ee	8aa
.	8a	8AA	4r	4r	4r	4r
.	8cc#yJ	8AJ	.	.	.	.
.	16ddL	8DL	4.r	4.r	4.r	4.r
.	16a	.	.	.	.	.
.	16dd	8DD	.	.	.	.
.	16ff#y	.	.	.	.	.
.	16aa	8DJ	.	.	.	.
.	16ff#yJ	.	.	.	.	.
=183	=183	=183	=183	=183	=183	=183
.	8eeL	8AL	2.r	2.r	2.r	2.r
.	8a	8AA	.	.	.	.
.	8cc#yJ	8AJ	.	.	.	.
.	16eeL	8EL	.	.	.	.
.	16b	.	.	.	.	.
.	16ee	8EE	.	.	.	.
.	16gg	.	.	.	.	.
.	16bb	8EJ	.	.	.	.
.	16ggJ	.	.	.	.	.
=184	=184	=184	=184	=184	=184	=184
.	8ff#yL	8BL	2.r	2.r	2.r	2.r
.	8b	8BB	.	.	.	.
.	8dd#J	8BJ	.	.	.	.
.	16eeL	8EL	.	.	.	.
.	16b	.	.	.	.	.
.	16ee	8EE	.	.	.	.
.	16gg	.	.	.	.	.
.	16bb	8EJ	.	.	.	.
.	16ggJ	.	.	.	.	.
=185	=185	=185	=185	=185	=185	=185
.	8ff#yL	8BL	2.r	2.r	4.r	4.r
.	8b	8BB	.	.	.	.
.	8dd#J	8BJ	.	.	.	.
.	16eeL	8EL	.	.	8ee	8gg#
.	16b	.	.	.	.	.
.	16ee	8EE	.	.	4r	4r
.	16gg#	.	.	.	.	.
.	16bb	8EJ	.	.	.	.
.	16gg#yJ	.	.	.	.	.
=186	=186	=186	=186	=186	=186	=186
.	8aaL	8AL	8AA	8a	8ee	8aa
.	8a	8AA	4r	4r	4r	4r
.	8cc#yJ	8AJ	.	.	.	.
.	16eeL	8EL	4.r	4.r	8ee	8gg#
.	16b	.	.	.	.	.
.	16ee	8EE	.	.	4r	4r
.	16gg#	.	.	.	.	.
.	16bb	8EJ	.	.	.	.
.	16gg#yJ	.	.	.	.	.
=187	=187	=187	=187	=187	=187	=187
.	8aaL	8AAL	8AA	8a	8ee	8aa
.	16ee	8c#y	4r	4r	4r	4r
.	16cc#y	.	.	.	.	.
.	16dd	8BJ	.	.	.	.
.	16bJ	.	.	.	.	.
.	16cc#yL	8AL	4.r	4.r	4.r	4.r
.	16dd	.	.	.	.	.
.	16ee	8c#y	.	.	.	.
.	16cc#y	.	.	.	.	.
.	16dd	8BJ	.	.	.	.
.	16bJ	.	.	.	.	.
=188	=188	=188	=188	=188	=188	=188
.	8cc#yL	8AL	2.r	2.r	2.r	2.r
.	8ee	8c#y	.	.	.	.
.	[8aaJ	8f#yJ	.	.	.	.
.	8aa]	8dL	.	.	.	.
.	4gg#T	8e	.	.	.	.
.	.	8EJ	.	.	.	.
=189	=189	=189	=189	=189	=189	=189
.	16aaL	16c#yL	8r	8r	8r	[2.aa
.	16ee	16d	.	.	.	.
.	16cc#y	16e	8AAL	8aL	8eeL	.
.	16aa	16c#y	.	.	.	.
.	16b	16d	8AAJ	8aJ	8eeJ	.
.	16gg#J	16BJ	.	.	.	.
.	16aaL	16c#yL	8AAL	8aL	8eeL	.
.	16ee	16d	.	.	.	.
.	16cc#y	16e	8AA	8a	8ee	.
.	16aa	16c#y	.	.	.	.
.	16b	16d	8AAJ	8aJ	8eeJ	.
.	16gg#yJ	16BJ	.	.	.	.
=190	=190	=190	=190	=190	=190	=190
.	16aaL	8c#yL	8AAL	8aL	8eeL	4.aa_
.	16ee	.	.	.	.	.
.	16cc#y	8AA	8AA	8a	8ee	.
.	16b	.	.	.	.	.
.	16a	8AAJ	8AAJ	8aJ	8eeJ	.
.	16cc#yJ	.	.	.	.	.
.	16ddL	8BBL	8D	8d	8dd	8aa]
.	16ee	.	.	.	.	.
.	16dd	16BB	4D	4d	4dd	4gg#T
.	16cc#y	16C#y	.	.	.	.
.	16b	16D	.	.	.	.
.	16ddJ	16BBJ	.	.	.	.
=191	=191	=191	=191	=191	=191	=191
.	16eeL	8C#yL	8AA	8a	8ee	8aa
.	16dd	.	.	.	.	.
.	16ee	8F#y	4r	4r	4r	4r
.	16ff#y	.	.	.	.	.
.	16ee	8F#yJ	.	.	.	.
.	16ff#yJ	.	.	.	.	.
.	16ddL	8BBL	4.r	4.r	4.r	4.r
.	16cc#y	.	.	.	.	.
.	16dd	8EJ	.	.	.	.
.	16ee	.	.	.	.	.
.	16dd	8r	.	.	.	.
.	16eeJ	.	.	.	.	.
!!LO:LB
=192	=192	=192	=192	=192	=192	=192
.	16cc#yL	4BB	2.r	2.r	2.r	2.r
.	16b	.	.	.	.	.
.	16cc#y	.	.	.	.	.
.	16a	.	.	.	.	.
.	16ff#y	8D	.	.	.	.
.	16gg#J	.	.	.	.	.
.	16aaL	8C#y	.	.	.	.
.	16bb	.	.	.	.	.
.	16gg#y	4BB	.	.	.	.
.	16ff#y	.	.	.	.	.
.	16ee	.	.	.	.	.
.	16ddJ	.	.	.	.	.
=193	=193	=193	=193	=193	=193	=193
.	8cc#yL	8AL	8AA	8a	8ee	8aa
.	8a	8AA	4r	4r	4r	4r
.	8cc#yJ	8AJ	.	.	.	.
.	16ddL	8dL	8D	8a	8ff#y	8aa
.	16ff#y	.	.	.	.	.
.	16aa	8D	4r	4r	4r	4r
.	16ccn	.	.	.	.	.
.	16aa	8dJ	.	.	.	.
.	16ccJ	.	.	.	.	.
=194	=194	=194	=194	=194	=194	=194
.	8bL	8GL	2.r	2.r	8ff#y	8gg
.	8g	8GG	.	.	4r	4r
.	8bJ	8GJ	.	.	.	.
.	16cc#yL	8c#yL	.	.	8ee	8gg
.	16ee	.	.	.	.	.
.	16gg	8C#y	.	.	4r	4r
.	16b	.	.	.	.	.
.	16gg	8c#yJ	.	.	.	.
.	16bJ	.	.	.	.	.
=195	=195	=195	=195	=195	=195	=195
.	8aL	8F#yL	2.r	8a	8ee	8ff#y
.	8f#y	8FF#y	.	4r	4r	4r
.	8aJ	8F#yJ	.	.	.	.
.	16bL	8BL	.	8d	8dd	8ff#y
.	16dd	.	.	.	.	.
.	16ff#y	8BB	.	4r	4r	4r
.	16a	.	.	.	.	.
.	16ff#y	8BJ	.	.	.	.
.	16aJ	.	.	.	.	.
=196	=196	=196	=196	=196	=196	=196
.	8gL	8EL	2.r	4.r	8dd	8ee
.	8e	8EE	.	.	4r	4r
.	8gJ	8EJ	.	.	.	.
.	16aL	8AL	.	8a	8a	8ee
.	16cc#y	.	.	.	.	.
.	16ee	8AA	.	4r	4r	4r
.	16g	.	.	.	.	.
.	16ee	8AJ	.	.	.	.
.	16gJ	.	.	.	.	.
=197	=197	=197	=197	=197	=197	=197
.	16f#yL	8DL	2.r	8f#y	8a	8dd
.	16ff#y	.	.	.	.	.
.	16ee	8C#y	.	4r	4r	4r
.	16cc#y	.	.	.	.	.
.	16dd	8BBJ	.	.	.	.
.	16bJ	.	.	.	.	.
.	16cc#yL	8AAL	.	4.r	4.r	4.r
.	16dd	.	.	.	.	.
.	16ee	8c#y	.	.	.	.
.	16cc#y	.	.	.	.	.
.	16dd	8BJ	.	.	.	.
.	16bJ	.	.	.	.	.
=198	=198	=198	=198	=198	=198	=198
.	16cc#yL	8AL	2.r	2.r	2.r	2.r
.	16dd	.	.	.	.	.
.	16dd	8B	.	.	.	.
.	16ee	.	.	.	.	.
.	16ee	8c#yJ	.	.	.	.
.	16ff#yJ	.	.	.	.	.
.	8ff#yL	8dL	.	.	.	.
.	16b	8e	.	.	.	.
.	16cc#y	.	.	.	.	.
.	16dd	8EJ	.	.	.	.
.	16bJ	.	.	.	.	.
=199	=199	=199	=199	=199	=199	=199
.	16eeL	16C#yL	8AA	8a	8ee	8aa
.	16dd	16BB	.	.	.	.
.	16ee	16C#y	4r	4r	4r	4r
.	16cc#y	16AA	.	.	.	.
.	16dd	16BB	.	.	.	.
.	16eeJ	16C#yJ	.	.	.	.
.	16ff#yL	16DL	8D	8a	8dd	8ff#y
.	16ee	16C#y	.	.	.	.
.	16ff#y	16D	4r	4r	4r	4r
.	16dd	16BB	.	.	.	.
.	16ee	16C#y	.	.	.	.
.	16ff#yJ	16DJ	.	.	.	.
=200	=200	=200	=200	=200	=200	=200
.	16eeL	16C#yL	8AA	8a	8ee	8aa
.	16dd	16BB	.	.	.	.
.	16ee	16C#y	4r	4r	4r	4r
.	16cc#y	16AA	.	.	.	.
.	16dd	16BB	.	.	.	.
.	16eeJ	16C#yJ	.	.	.	.
.	16ff#yL	16DL	8D	8a	8dd	8ff#y
.	16ee	16C#y	.	.	.	.
.	16ff#y	16D	4r	4r	4r	4r
.	16dd	16BB	.	.	.	.
.	16ee	16C#y	.	.	.	.
.	16ff#yJ	16DJ	.	.	.	.
=201	=201	=201	=201	=201	=201	=201
.	16eeL	16C#yL	8AA	8a	8ee	8aa
.	16dd	16BB	.	.	.	.
.	16ee	16C#y	4r	4r	4r	4r
.	16cc#y	16AA	.	.	.	.
.	16dd	16BB	.	.	.	.
.	16eeJ	16C#yJ	.	.	.	.
.	8ff#yL	8DL	8r	8r	8r	8r
.	16ff#y	8D	8DL	8ddL	8ff#yL	16aaL
.	16dd	.	.	.	.	16ff#y
.	16ee	8DJ	8DJ	8aJ	8eeJ	16gg
.	16cc#yJ	.	.	.	.	16eeJ
=202	=202	=202	=202	=202	=202	=202
.	16ddL	8DL 8A 8d	8DL	8aL	8ddL	16ff#yL
.	16ee	.	.	.	.	16gg
.	16ff#y	8D	8D	8dd	8ff#y	16aa
.	16dd	.	.	.	.	16ff#y
.	16ee	8DJ	8DJ	8aJ	8eeJ	16gg
.	16cc#yJ	.	.	.	.	16eeJ
.	8ddL	8DL 8A 8d	8DL	8aL	4dd	16ff#yL
.	.	.	.	.	.	16ee
.	8a	8D	8D	8d	.	16ff#y
.	.	.	.	.	.	16gg
.	[8ddJ	8DJ	8DJ	8f#yJ	8dd	16aa
.	.	.	.	.	.	16ff#yJ
!!LO:LB
=203	=203	=203	=203	=203	=203	=203
.	8ddL]	8EL	8r	8r	8ddL	16ggL
.	.	.	.	.	.	16aa
.	16cc#y	16E	8AAL	8aL	8ee	16gg
.	16dd	16F#y	.	.	.	16ff#y
.	[8eeJ	16G	8AAJ	8aJ	8eeJ	16ee
.	.	16EJ	.	.	.	16ggJ
.	8eeL]	8F#yL	8AAL	8aL	8eeL	16aaL
.	.	.	.	.	.	16gg
.	16dd	8B	8DJ	8f#yJ	8dd	16aa
.	16cc#y	.	.	.	.	16bb
.	[8ddJ	8BJ	8r	8r	8ddJ	16aa
.	.	.	.	.	.	16bbJ
=204	=204	=204	=204	=204	=204	=204
.	8ddL]	8EL	4r	4r	8eeL	16ggL
.	.	.	.	.	.	16ff#y
.	16cc#y	8AJ	.	.	8eeJ	16gg
.	16a	.	.	.	.	16aa
.	16b	8r	8AA	8a	8r	16gg
.	16cc#yJ	.	.	.	.	16aaJ
.	8ddL	4D	8DL	8aL	4dd	8ff#y
.	8d	.	8DJ	8aJ	.	4bb
.	8bJ [8dd	8G	8r	8r	8dd	.
=205	=205	=205	=205	=205	=205	=205
.	8a 8dd]	8F#y	8D	8a	8dd	8aaL
.	4g 4a 4cc#y	4E	4AA	4a	4ee	16aa
.	.	.	.	.	.	16ff#y
.	.	.	.	.	.	16gg
.	.	.	.	.	.	16eeJ
.	8f#yL 8a 8dd	8DL	8DL	8aL	8aL	16ff#yL
.	.	.	.	.	.	16ee
.	16dd	16D	8D	8f#y	8a	16ff#y
.	16cc#y	16E	.	.	.	16gg
.	16dd	16F#y	8DJ	8dJ	8aJ	16aa
.	16bJ	16GJ	.	.	.	16bbJ
=206	=206	=206	=206	=206	=206	=206
.	16aL 16ee	8AAL	8AA	8a	8a	8eeL
.	16ff#y	.	.	.	.	.
.	16gg	8A	4r	4r	4r	16a
.	16ee	.	.	.	.	16a
.	16ff#y	8AJ	.	.	.	16a
.	16ddJ	.	.	.	.	16aJ
.	16aL 16ee	8AAL	8AA	8a	8aL	8a
.	16ff#y	.	.	.	.	.
.	16gg	8A	4r	4r	16a	4r
.	16ee	.	.	.	16a	.
.	16ff#y	8AJ	.	.	16a	.
.	16ddJ	.	.	.	16aJ	.
=207	=207	=207	=207	=207	=207	=207
.	16aL 16ee	8AAL	8AA	8a	8a	8aL
.	16ff#y	.	.	.	.	.
.	16gg	8A	4r	4r	4r	16a
.	16ee	.	.	.	.	16a
.	16ff#y	8AJ	.	.	.	16a
.	16ggJ	.	.	.	.	16aJ
.	16cc#yL 16aa	8AAL	8AA	8a	8aL	8a
.	16gg	.	.	.	.	.
.	16aa	8A	4r	4r	16a	8r
.	16bb	.	.	.	16a	.
.	16aa	8AJ	.	.	16a	8r
.	16bbJ	.	.	.	16aJ	.
=208	=208	=208	=208	=208	=208	=208
*	*	*^	*	*	*	*
.	16ggL	8cc#y	8AAL	8AA	8a	8a	8aL
.	16ff#y	.	.	.	.	.	.
.	16gg	4r	8A	4r	4r	4r	16a
.	16aa	.	.	.	.	.	16a
.	16gg	.	8AJ	.	.	.	16a
.	16aaJ	.	.	.	.	.	16aJ
.	16ff#yL	8aL 8dd	8dL	8DL	8aL	8aL	8aL
.	16gg	.	.	.	.	.	.
.	8.eeT	8a 8dd	8A	16AA	16a	16a	16a
.	.	.	.	16AA	16a	16a	16a
.	.	8aJ 8cc#y	8AAJ	16AA	16a	16a	16a
.	16ddJ	.	.	16AAJ	16aJ	16aJ	16aJ
*	*	*v	*v	*	*	*	*
=209	=209	=209	=209	=209	=209	=209
.	8f#yL 8a 8dd	8D	8D	8f#y	8f#y	8f#y
.	8a	4r	4r	4r	4r	4r
.	8aJ	.	.	.	.	.
.	8eL 8a 8cc#y	8C#y	4.r	4.r	4.r	4.r
.	8a	4r	.	.	.	.
.	8aJ	.	.	.	.	.
=210	=210	=210	=210	=210	=210	=210
.	8f#yL 8a 8cc#y	8F#y	2.r	2.r	2.r	2.r
.	8a	4r	.	.	.	.
.	8aJ	.	.	.	.	.
.	8g#L 8b 8ee	8E	.	.	.	.
.	16b	4r	.	.	.	.
.	16cc#y	.	.	.	.	.
.	16dd	.	.	.	.	.
.	16bJ	.	.	.	.	.
=211	=211	=211	=211	=211	=211	=211
.	8aL 8cc#y 8ee	8AL	2.r	2.r	2.r	2.r
.	8f#y 8b 8dd	8BJ	.	.	.	.
.	8ddJ	8r	.	.	.	.
.	8dL 8a 8dd	8F#y	.	.	.	.
.	8dd	4r	.	.	.	.
.	8ddJ	.	.	.	.	.
=212	=212	=212	=212	=212	=212	=212
.	8bL 8dd 8ff#y	8B	2.r	2.r	2.r	2.r
.	8dd	4r	.	.	.	.
.	8ddJ	.	.	.	.	.
.	8aL 8cc#y 8ee	8A	.	.	.	.
.	16ee	4r	.	.	.	.
.	16ff#y	.	.	.	.	.
.	16gg	.	.	.	.	.
.	16eeJ	.	.	.	.	.
=213	=213	=213	=213	=213	=213	=213
*	*	*^	*	*	*	*
.	16ddL 16ff#y	2.a	8D	2.r	2.r	2.r	2.r
.	16ee	.	.	.	.	.	.
.	16dd	.	4r	.	.	.	.
.	16ee	.	.	.	.	.	.
.	16ff#y	.	.	.	.	.	.
.	16ggJ	.	.	.	.	.	.
.	16aaL	.	4.r	.	.	.	.
.	16bb	.	.	.	.	.	.
.	16ccc#y	.	.	.	.	.	.
.	16aa	.	.	.	.	.	.
.	16bb	.	.	.	.	.	.
.	16ccc#yJ	.	.	.	.	.	.
*	*	*v	*v	*	*	*	*
!!LO:LB
=214	=214	=214	=214	=214	=214	=214
.	16dddL	8dL	8DL	8dL	8ff#yL	8aaL
.	16ff#y	.	.	.	.	.
.	16ddd	8D	16D	16d	16ff#y	16aa
.	16ff#y	.	16D	16d	16ff#y	16aa
.	16ddd	8dJ	16D	16d	16ff#y	16aa
.	16ff#yJ	.	16DJ	16dJ	16ff#yJ	16aaJ
.	16ccc#yL	8AL	8AAL	8aL	8eeL	8aaL
.	16ee	.	.	.	.	.
.	16ccc#y	8AA	16AA	16a	16ee	16aa
.	16ee	.	16AA	16a	16ee	16aa
.	16ccc#y	8AJ	16AA	16a	16ee	16aa
.	16eeJ	.	16AAJ	16aJ	16eeJ	16aaJ
=215	=215	=215	=215	=215	=215	=215
.	16bbL	8BL	8DL	8dL	8ddL	8ff#yL
.	16dd	.	.	.	.	.
.	16bb	8BB	16D	16d	16dd	16ff#y
.	16dd	.	16D	16d	16dd	16ff#y
.	16bb	8BJ	16D	16d	16dd	16ff#y
.	16ddJ	.	16DJ	16dJ	16ddJ	16ff#yJ
.	16aaL	8F#yL	8AAL	8aL	8ff#yL	8aaL
.	16cc#y	.	.	.	.	.
.	16aa	8FF#y	16AA	16a	16ff#y	16aa
.	16cc#y	.	16AA	16a	16ff#y	16aa
.	16aa	8F#yJ	16AA	16a	16ff#y	16aa
.	16cc#yJ	.	16AAJ	16aJ	16ff#yJ	16aaJ
=216	=216	=216	=216	=216	=216	=216
.	16ggL	8GL	8DL	8dL	8ddL	8ggL
.	16b	.	.	.	.	.
.	16gg	8GG	16D	16d	16dd	16gg
.	16b	.	16D	16d	16dd	16gg
.	16gg	8GJ	16D	16d	16dd	16gg
.	16bJ	.	16DJ	16dJ	16ddJ	16ggJ
.	16ff#yL	8DL	8DL	8f#yL	8ddL	8ff#yL
.	16a	.	.	.	.	.
.	16ff#y	8DD	16D	16f#y	16a	16ff#y
.	16a	.	16D	16f#y	16a	16ff#y
.	16ff#y	8DJ	16D	16f#y	16a	16ff#y
.	16aJ	.	16DJ	16f#yJ	16aJ	16ff#yJ
=217	=217	=217	=217	=217	=217	=217
.	16eeL	8AAL	8AAL	8aL	8aL	8eeL
.	16a	.	.	.	.	.
.	16ee	8A	8AA	8a	8a	8ee
.	16a	.	.	.	.	.
.	16ff#y	8DJ	8AAJ	8aJ	8ddJ	8ff#yJ
.	16aJ	.	.	.	.	.
.	16ggL	8AAL	8AAL	8aL	8eeL	8ggL
.	16a	.	.	.	.	.
.	16gg	8A	8AA	8a	8a	8gg
.	16a	.	.	.	.	.
.	16ff#y	8DJ	8AAJ	8aJ	8aJ	8ff#yJ
.	16aJ	.	.	.	.	.
=218	=218	=218	=218	=218	=218	=218
.	16eeL	8AAL	8AAL	8aL	8aL	8eeL
.	16a	.	.	.	.	.
.	16ee	8A	8AA	8a	8a	8ee
.	16a	.	.	.	.	.
.	16ff#y	8DJ	8AAJ	8aJ	8ddJ	8ff#yJ
.	16aJ	.	.	.	.	.
.	16ggL	8AAL	8AAL	8aL	8eeL	8ggL
.	16a	.	.	.	.	.
.	16gg	8A	8AA	8a	8a	8gg
.	16a	.	.	.	.	.
.	16ff#y	8DJ	8AAJ	8aJ	8aJ	8ff#yJ
.	16aJ	.	.	.	.	.
=219	=219	=219	=219	=219	=219	=219
.	16eeL	8AA	8AA	8a	8a	8ee
.	16a	.	.	.	.	.
.	16b	4r	4r	4r	4r	4r
.	16cc#y	.	.	.	.	.
.	16dd	.	.	.	.	.
.	16eeJ	.	.	.	.	.
.	16ff#yL	8r	8r	8r	8r	8r
.	16gg	.	.	.	.	.
.	16aa	8DL	8DL	8ddL	8ff#yL	16aaL
.	16ff#y	.	.	.	.	16ff#y
.	16gg	8DJ	8DJ	8aJ	8eeJ	16gg
.	16eeJ	.	.	.	.	16eeJ
=220	=220	=220	=220	=220	=220	=220
.	16ddL	8DL	8DL	8aL	8ddL	16ff#yL
.	16ee	.	.	.	.	16gg
.	16ff#y	8D	8D	8dd	8ff#y	16aa
.	16dd	.	.	.	.	16ff#y
.	16ee	8DJ	8DJ	8aJ	8eeJ	16gg
.	16cc#yJ	.	.	.	.	16eeJ
.	8ddL	8DL	8DL	8aL	4dd	16ff#yL
.	.	.	.	.	.	16ee
.	8a	8D	8D	8d	.	16ff#y
.	.	.	.	.	.	16gg
.	8f#yJ 8a [8dd	8DJ	8DJ	8f#yJ	8dd	16aa
.	.	.	.	.	.	16ff#yJ
=221	=221	=221	=221	=221	=221	=221
.	8gL 8dd] 8ee	8EL	2.r	4.r	8ddL	16ggL
.	.	.	.	.	.	16ff#y
.	16cc#y	16E	.	.	8ee	16gg
.	16dd	16F#y	.	.	.	16aa
.	[8eeJ	16G	.	.	8eeJ	16bb
.	.	16EJ	.	.	.	16ggJ
.	8aL 8ee]	8F#yL	.	4r	8eeL	8aaL
.	16dd	8B	.	.	8dd	8ff#yJ
.	16cc#y	.	.	.	.	.
.	8f#yJ [8dd	8BJ	.	8dd	8ddJ	8r
=222	=222	=222	=222	=222	=222	=222
.	8gL 8dd]	8EL	4.r	8ddL	8eeL	8gg
.	8eJ 8cc#y	8AJ	.	8aJ	8eeJ	4r
.	8r	8r	.	8r	8r	.
.	8f#yL 8a 8dd	8DL	8DL	8aL	8ddL	16ff#yL
.	.	.	.	.	.	16ee
.	8f#y 8a 8dd	8A	16AA	16a	8dd	8.eeT
.	.	.	16AA	16a	.	.
.	8eJ 8a 8cc#y	8AAJ	16AA	16a	8aJ	.
.	.	.	16AAJ	16aJ	.	16ddJ
=223	=223	=223	=223	=223	=223	=223
.	16aL 16dd 16ff#y	4D 4A 4d	8D	8f#y	8a	8dd
.	16gg	.	.	.	.	.
.	16aa	.	4r	4r	4r	4r
.	16ff#y	.	.	.	.	.
.	16gg	8r	.	.	.	.
.	16eeJ	.	.	.	.	.
.	16ff#yL	4D 4F#y 4A	4.r	4.r	4.r	4.r
.	16gg	.	.	.	.	.
.	16aa	.	.	.	.	.
.	16ff#y	.	.	.	.	.
.	16gg	8r	.	.	.	.
.	16eeJ	.	.	.	.	.
=224	=224	=224	=224	=224	=224	=224
.	8aL 8dd 8ff#y	8DL 8A 8d	2.r	2.r	2.r	2.r
.	8dd 8bb	8G	.	.	.	.
.	8cc#yJ 8bb	8GJ	.	.	.	.
.	8bL 8ee	8C#yL	.	.	.	.
.	8aJ 8cc#y 8aa	8EJ	.	.	.	.
.	8r	8r	.	.	.	.
!!LO:LB
=225	=225	=225	=225	=225	=225	=225
.	8f#yL 8a 8dd	8BBL	2.r	2.r	2.r	2.r
.	8gg	8r	.	.	.	.
.	8gJ	8EJ	.	.	.	.
.	8gL 8cc#y	8AAL	.	.	.	.
.	8f#yJ 8dd 8ff#y	8DJ	.	.	.	.
.	8r	8r	.	.	.	.
=226	=226	=226	=226	=226	=226	=226
.	8gL 8b 8dd	8GL	2.r	2.r	2.r	2.r
.	8g 8cc#y 8ee	8E	.	.	.	.
.	8f#yJ 8ee	8EJ	.	.	.	.
.	8eL 8a	8F#yL	.	.	.	.
.	8f#yJ 8dd	8BJ	.	.	.	.
.	8r	8r	.	.	.	.
=227	=227	=227	=227	=227	=227	=227
.	16aL 16cc#y	16AAL	4.AA	4.a	4.ee	4.aa
.	16b	16GG	.	.	.	.
.	16cc#y	16AA	.	.	.	.
.	16dd	16BB	.	.	.	.
.	16ee	16C#y	.	.	.	.
.	16cc#yJ	16AAJ	.	.	.	.
.	16ddL 16ff#y	16DL	4.D	4.a	4.ff#y	4.aa
.	16gg	16C#y	.	.	.	.
.	16ff#y	16D	.	.	.	.
.	16ee	16E	.	.	.	.
.	16dd	16F#y	.	.	.	.
.	16eeJ	16GJ	.	.	.	.
=228	=228	=228	=228	=228	=228	=228
.	16aL 16cc#y	16AL	4.AA	4.a	4.ee	4.aa
.	16b	16G	.	.	.	.
.	16cc#y	16A	.	.	.	.
.	16dd	16B	.	.	.	.
.	16ee	16c#y	.	.	.	.
.	16cc#yJ	16AJ	.	.	.	.
.	16ddL 16ff#y	16dL	4.D	4.a	4.ff#y	4.aa
.	16gg	16c#y	.	.	.	.
.	16ff#y	16d	.	.	.	.
.	16ee	16A	.	.	.	.
.	16dd	16F#y	.	.	.	.
.	16ff#yJ	16DJ	.	.	.	.
=229	=229	=229	=229	=229	=229	=229
.	4a 4cc#y 4ee	4A	4AA	4a	4ee	8.aaL
.	.	.	.	.	.	16ee
.	8f#y 8a 8dd	8d	8D	8a	8dd	8ff#yJ
.	8gL 8b 8dd	8GL	8DL	8r	8dL	8ggL
.	8f#y 8a 8dd	8A	8.AA	16aL	8.a	8.eeT
.	.	.	.	16a	.	.
.	8eJ 8a 8cc#y	8AAJ	.	16a	.	.
.	.	.	16AAJ	16aJ	16aJ	16ddJ
=230	=230	=230	=230	=230	=230	=230
.	4.f#y; 4.a 4.dd;	4.D;	4.D;	4.f#y;	4.a;	4.dd;
.	4.r	4.r	4.r	4.r	4.r	4.r
*	*v	*v	*	*	*	*
==	==	==	==	==	==
*-	*-	*-	*-	*-	*-
!!!RDF**kern: > = above
